X:1
T:Scherzo
T:Scherzo
T:F.Chopin, Op.54
C:F.Chopin, Op.54
%%score { ( 1 3 5 ) | ( 2 4 6 ) }
L:1/8
Q:3/4=110
M:3/4
K:E
V:1 bass nm="Piano" snm="Pno."
V:3 bass 
V:5 bass 
V:2 bass 
V:4 bass 
V:6 bass 
V:1
!p!"^Presto" (B,6 | C6 | G,6 | C6 |"^ten." [F,A,B,]6- | [F,A,B,]6- | [F,A,B,]6- | [F,A,B,-]6) | %8
 B,6 |[K:treble]!mp! ([DA]6 |!>(! [EG]2) z ([B,F] [B,E]2!>)! |!p! [EG]6 |"^ten." [^A,EF]6- | %13
 [A,EF]6- | [A,EF]6- | [A,EF]6) | ([G,B,]4!<(! .[B,E]2 | .[EG]2 .[GB]2 .[Be]2 | [eg]6 | %19
!mf! [=gc']6!<)! |!>(! .[fb]2 .[=d^g]2 .[c=a]2 | .[cf]2 .[^Bg]2 .[ce]2 |!mp! [Gc]6!>)! | [Bd]6 | %24
 .[Ge]2) z2 z2 | !>!B,6- | B,6 |!<(! G,2 E3 B!<)! | B6- | B6- |!>(! B6- | B6!>)! |!mf! ([B,B]6 | %33
 [Cc]6 | [G,G]6 | [Cc]6 |"^ten." [B,FAB]6- | [B,FAB]6- | [B,FAB]6- | [B,-FAB]6) | (B,6 | %41
!mp!!>(! [DA]6 | [EG]2) z ([B,F] [B,E]2!>)! |!p! [EG]6) |"^ten." [G,B,E]6- | [G,B,E]6- | %46
 [G,B,E]6- | [G,B,E]6- | ([G,B,E]4!<(! .[B,E]2 | [EG]2 [GB]2 [Be]2 | [eg]6 |!mf! [fc']6!<)! | %52
!>(! .[fb]2 .[eg]2 .[ea]2 | .[=df]2 .[Be]2 .[Ac]2!>)! |!mp! [FA]6) | ([E-B]6 | .[CEAc]2) z2 z2 | %57
 (E6- | E6 |!p!!<(! C2 A3 e |!mf! e6!<)! |!>(! d4 c2 | c6 |!p! c6!>)! |{/c} .F2) z2 z2 | %65
!p!!<(! (^Bcdcgf | gf^efd'c' | ^abd'e'!8va(! e''2)!<)! |!mf!!>(! d''^b'd''c''a'e'!8va)! | %69
 d'c'aedc | AEDC[I:staff +1]A,!>)!E, |[I:staff -1] z6[Q:3/4=72] |[Q:3/4=110]!>(!{CA} (e6 | %73
 d4!mp! c2!>)! |!mf!!>(! g6 | f2 e2!mp! ^B2!>)! |!mf! e6 |!>(! d4 c2 | c6 |!p! c6!>)! | %80
{/c} .F2) z2 z2 |!p!!<(! (^Bcdcgf | gf^efd'c' | ^abd'e'!8va(! e''2)!<)! | %84
!mf!!>(! d''^b'd''c''^a'e'!8va)! | d'c'^aedc | ^AEDC[I:staff +1]^A,!>)!E, | %87
[I:staff -1] z6[Q:3/4=80] |[Q:3/4=140]{/^A,} (3(A,E^A-)[Q:3/4=110]!>(! (e6 | d4 c2)!>)! | %90
!mp!!>(!{/^A} (g6 | f4 e2 | e6 | d4 c2 | c6)!>)! |!<(! (c6!<)! | .[FBf]2) z2 z2 | %97
!mp!!<(! (^efgfef | ^^fg^agfg | ^^g^abaga!<)! |!mf!!>(! bg'f'^e'=e'd' | c'b^agf^e | =edcB^AG | %103
 (F ^^F^AG^FE!>)! |!mp! .D2)) z2 z2 |!>(! (d'c'b^agf | ^edcB^AG | F^EDCB,G,)!>)! | %108
"^ten." (!>!F,6- | F,6 | [^A,C]6 | [B,D]4{/F} [^A,E]2 | .[B,D]2) z2 z2 |!mp!!<(! (^EFGFEF | %114
 ^^FG^AGFG | ^^G^ABAGA!<)! | B!mf!g!>(!f^e=ed | cB^AG^F^E |[K:bass] =EDCB,^A,G, | %119
 F,^^F,^A,G,^F,!mp!E,!>)! | .D,2) z2 z2 | %121
[K:treble]!f![Q:3/4=100]!8va(! (d''f'^^f'g'[Q:3/4=110]a'd' | e'^e'f'^bc'^^c'!8va)! | d'f^^fgad | %124
 e^ef^Bc^^c | dF^^FGA^B, | C^^CDF,^^F,G, | A,G,^^F,G,B,A, | .G,2) z2 z2 | .[G,^B,FG]2 z2 z2 | z6 | %131
 [FGcf]6- | [FGcf]4 z ([FGf] |!>(! [EGce]4 [DGd]2 | [DGd]6 | [DGd]6)!>)! | ([FGd]4 [EGce]2 | %137
 [DG=Bd]6) |[K:bass]!p! D6- | D6 |[K:treble]!f! ([CGBc]6 | [GBeg]6 | [CGBc]6 | [EF^Ad]6 | %144
 .[DB]2) z2 z2 |[K:bass]!p!!>(! ([E,G,B,-]6 | [D,F,B,]6 | E2 D2 C2 | [E,G,B,]6!>)! | [F,B,D]6) | %150
[K:treble]"^ten." !>![dd']6- | [dd']6 ||[K:Ab][K:bass]!<(! ([E,E]6 | [_F,_F]6 | [=D,=D]6 | %155
 [E,E]6!<)! | [E,G,DE]6- | [E,G,DE]6- | [E,G,DE]6- | [E,G,DE]6-) | ([E,G,DE]6 | %161
[K:treble]!>(! [Gd]6 | [Ac]2 z [EB] [EA]2!>)! | [Ac]6 | [=DAB]6- | [DAB]6- | [DAB]6- | [DAB]6) | %168
 z2 (.[CE]2 .[EA]2 |!<(! .[Ac]2 .[ce]2 .[ea]2 | [ac']6 | [_c'f']6!<)! | %172
!>(! .[be']2 .[_g=c']2 .[fd']2 | .[_fb]2 .[ec']2 .[ea]2 | [df]6 | [Be]6!>)! | .[Ac]2) z2 z2 | %177
 (E6- | E6 |!<(! C2 A3 e | e6!<)! |!>(! d4 c2 | c6 | c6)!>)! |!mp! ([Cc]6 | [Dd]6 | [=B,=B]6 | %187
 [Cc]6 |"^ten." [C=EBc]6- | [CEBc]6- | [CEBc]6- | [CEBc]6) | z6 |!>(! ([=EB]6 | %194
 [F=A]2 z [CG] [CF]2!>)! | [F=A]6 | [FG]6-) ||[K:E] (([FG]6 |!<(! [^EG]6) |!mp! [^B,A]6!<)! | %200
!pp! .[CF^A]2)!<(! (.[^A,C]2 .[CF]2 | .[F^A]2 .[Ac]2 .[cf]2 | [f^a]6 |!p! [=ad']6!<)! | %204
!>(! .[gc']2 .[=e^a]2 .[db]2 | .[dg]2 .[^^c^a]2 .[df]2 | [^Ad]6 | [c^e]6!>)! |!pp! .[df]2) z2 z2 | %209
[K:bass]!mf! (A,6- | A,4!>(! G,=G, | F,=F,E,D,=D,C, |!mp! .^B,,2)!>)! z2 z2 | %213
[K:treble]!mf!!>(! (d6 | F4 G2 | B4!>)! A2) |!mp! ([B,-^E-G]6 | [B,-E-A]6 | G2)"_leggiero" (A,CAG | %219
!mp!!<(! F^^FGA^AB | ^Bc^^FGed | cde^ef^^f | gabaf'e' |!8va(! =d'e'f'=g'^g'a'!<)! | %224
!<(! ^^f'g'^a'g'^e''d''!<)! |!>(! c''^b'^a'g'f'^e'!8va)! | d'c'^b^ag^^f | ^f^edc^B^A!>)! | %228
 G!<(!^A^Bcd^e | fg^b!<)!^agf | ^ef^e'!>(!^bd'c' | g^edcG!>)!C) | ([C-^^F-^A]6 | [C-F-B]6 | %234
 ^A2)"_leggiero" (B,DBA |!mp! G=A^AB^Bc | ^^cdAd^ag | fg^ab^bc' |!8va(! ^^c'd'e'd'g'f' | %239
 e'f'g'a'^a'b' ||[K:Eb] =a'b'c''b'!>(!e''c'' | b'c''b'=a'_a'g'!8va)! | f'e'd'c'b=a | _agfedc!>)! | %244
 B!<(!cdefg | abd'!<)!c'ba |!mf! gbg'!>(!d'f'e' | bgeB!>)!!mp! E2) ||[K:E][Q:3/4=100] f3 g3 | %249
 e3 f3 | d3 e3 | c3 d3 | c3 B3 |!mp![Q:3/4=110]!<(! (Bdfbb'g'!<)! |!mf!!>(! f'c'bgfc | %255
 BGFC!>)! !>!B,2) |!mp![Q:3/4=100] f3 g3 | e3 f3 | d3 e3 | c3 d3 | c3 B3 | %261
[Q:3/4=110]!<(! (Bdfbb'g'!<)! |!mf!!>(! f'c'bgfc | BGF!>)!C !>!B,2) |!mp![Q:3/4=100] f3 g3 | %265
 e3 b x2 | d3 e3 | c3 f x2 |"_dim."!>(! B3 c3 | A3 d3 |[Q:3/4=96] G3 A3 | %271
[Q:3/4=94] F3[Q:3/4=92] B3!>)! |[K:bass][Q:3/4=110] (B,6 | C6 | G,6 | C6 |"^ten." [F,A,B,]6- | %277
 [F,A,B,]6- | [F,A,B,]6- | ([F,A,-B,-]6) | ([D,A,B,]6) |[K:treble]!mp!!>(! ([DA]6 | %282
 [EG]2) z!>)! [B,F] [B,E]2 |!p! [EG]6 |"^ten." [^A,EF]6- | [A,EF]6- | [A,EF]6- | [A,EF]6) | %288
 z2 ([G,B,]2 .[B,E]2 |!<(! .[EG]2 .[GB]2 .[Be]2 | [eg]6 |!mf! [=gc']6!<)! | %292
!>(! .[fb]2 .[=d^g]2 .[c=a]2 | .[cf]2 .[^Bg]2 .[ce]2 |!mp! [Gc]6!>)! | [Bd]6 | .[Ge]2) z2 z2 | %297
!mf! !>!B,6- | B,6 |!<(! G,2 E3 B!<)! |!mf! B6- | B6- |!mf!!<(! B6 | c2 d2 e2!<)! |!f! ([B,B]6 | %305
 [Cc]6 | [G,G]6 | !arpeggio![Dd]2 [Cc]3 [B,B] |"^ten." [B,FAB]6- | [B,FAB]6- | [B,FAB]6- | %311
 [B,-FAB]6)[Q:3/4=80] |[Q:3/4=110] (B,6 |!mf!!>(! [DA]6 | [EG]2) z ([B,F] [B,E]2!>)! |!p! [EG]6) | %316
[K:bass]"^ten." [E,G,B,E]6- | [E,G,B,E]6- | [E,G,B,E]6- | [E,G,B,E]6- | %320
 ([E,G,B,E]4[K:treble]!mp!!<(! .[B,E]2 | [EG]2 [GB]2 [Be]2 | [eg]6 |!mf! [fc']6!<)! | %324
!>(! .[fb]2 .[eg]2 .[ea]2 | .[=df]2 .[Be]2 .[Ac]2 |!mp! [FA]6!>)! | [E-B]6 | .[CEAc]2) z2 z2 | %329
 (E6- | E6 |!p!!<(! C2 A3 e |!mf! e6!<)! |!>(! d4 c2 | c6 |!p! c6!>)! |{/c} .F2) z2 z2 | %337
!p!!<(! (^B"_leggiero"cdcgf | gf^efd'c' | ^abd'e'!8va(! e''2)!<)! | %340
!mf!!>(! d''^b'd''c''a'e'!8va)! | d'c'aedc | AEDC[I:staff +1]A,!>)!E, |[I:staff -1] z6 | %344
{/c} .F2 z2 z2 |!p!!<(! (^Bcdcgf | gf^efd'c' | ^abd'e'!8va(! e''2)!<)! | %348
!mf!!>(! d''^b'd''c''^a'e'!8va)! | d'c'^aedc | ^AEDC[I:staff +1]^A,E,!>)! |[I:staff -1] z6 | %352
[K:bass]{/F,} !>![B,,=A,B,]2 z2 z2 |"^cresc."[I:staff +1] (^A,,B,,C,B,,[I:staff -1]CB, | %354
 !>![F,A,B,]2) z2 z2 | !>![G,B,C]2 z2 z2 |[K:treble][Q:3/4=114]!mf! (E2!<(! D2 F2 | %357
!mf! B2)!<)! z2 z2 |[Q:3/4=118]!mf! (F2!<(! ^E2 G2 |!mf! c2)!<)! z2 z2 |!mf!{/C} !>![F,EF]2 z2 z2 | %361
[I:staff +1] (^E,F,G,F,[I:staff -1]GF | !>![CEF]2) z2 z2 | !>![=DEG]2 z2 z2 | %364
[Q:3/4=122] (B2!<(! ^A2 c2 | =g2)!<)! z2 z2 |[Q:3/4=126]!mf! (c2!<(! ^B2 d2 | a2)!<)! z2 z2 | %368
[Q:3/4=128]!mf! ([Aa]2!<(! [Gg]2 [^B^b]2 | [dd']2) z2 z2!<)! | %370
[Q:3/4=130]!f! ([^B^b]2!<(! [^^A^^a]2 [^^c^^c']2 | [^e^e']2) z2 z2!<)! | %372
[Q:3/4=132]!f! ([=ee']2!<(! [dd']2 [^^f^^f']2 | [^a^a']2) z2 z2 | z6 | %375
 z2!<)! z2 ([^A,E^^F]2"^stretto" |!ff! [G,DG]6 | [C^Fc]6 | [^B,F^B]6 | [FAcf]6 |!<(! c2 ^B2 d2 | %381
 .[FAf]2)!<)! z2 z2 | z6 |[Q:3/4=80]"^ritenuto" (!>!A6- | A6 | A,6- | A,6 | G,6 | %388
[Q:3/4=76]!<(! ^^F,4 G,2 |[Q:3/4=70] ^B,4 D2 |[Q:3/4=64] F4[Q:3/4=60] G2!<)! | %391
[Q:3/4=50]!mp!!>(! B2[Q:3/4=48] A3 G)!>)! |[Q:3/4=60]"^più lento"!p! (G6 | E4 F2 |!<(! G6 | %395
[Q:3/4=58] c4[Q:3/4=56] e2 |[Q:3/4=60]!mp! e6!<)! |!>(! d4 c2 | c6[Q:3/4=56] | %399
[Q:3/4=60]{^Bcd} c4 =B2!>)! |!mp! B6 | E4 F2 | G6 |[Q:3/4=58] B4[Q:3/4=56] A2 |[Q:3/4=60] G6- | %405
 G6- |[Q:3/4=58] G6) |[Q:3/4=56] (^E2[Q:3/4=54] FG[Q:3/4=52]AB |!p![Q:3/4=60]!<(! c6 | A4 B2 | c6 | %411
[Q:3/4=58] f4[Q:3/4=56] a2 |!mp![Q:3/4=60] a6!<)! |!>(! g4 f2 | e6 | %415
[Q:3/4=58] =d4[Q:3/4=56] c2!>)! |[Q:3/4=60]!mp! c4 ^B2 | c4 d2 |[Q:3/4=58] e4 c2 | %419
[Q:3/4=56] A4[Q:3/4=52] ^^F2 |[Q:3/4=60] ^^F6- | F2[Q:3/4=52] G2) z[Q:3/4=42] (g | %422
[Q:3/4=52]!pp! ag[Q:3/4=56]=gfed | c=c[Q:3/4=54]BA[Q:3/4=52]G>^^F |[Q:3/4=58]!<(! ^^F2 G2)!<)! z2 | %425
 z6 |[Q:3/4=60]!mp!"^sostenuto" (D6 | C4[Q:3/4=80] D2[Q:3/4=40] |[Q:3/4=60]{^B,CD} C4 B,2 | D6- | %430
[Q:3/4=58] D6) |[Q:3/4=56]!>(! D4[Q:3/4=48] D2[Q:3/4=52] |!p![Q:3/4=60] (G6 | E4!>)! F2 |!<(! G6 | %435
 c4 e2 |!mp! e6!<)! |!>(! d4 c2 | c6 |{^Bcd} c4 =B2!>)! |!mp! B6 | E4 F2 | G6 |!>(! B4 A2 | %444
 G6-!>)! | G6 |[Q:3/4=58] D6) |[Q:3/4=56]!<(! (^E2[Q:3/4=54] .F.G[Q:3/4=52].A[Q:3/4=110].B | %448
[Q:3/4=55] x!<)![Q:3/4=60] !arpeggio![Fc]6 |!<(! A4 B2 | c6 | f4 a2 |!mp! a6!<)! |!>(! g4 f2 | %454
!>(! f4 e2 | e2 =d2!>)! c2 |!mp!!>(! c4!>)! ^B2!>)! | c4 d2 |[Q:3/4=58] e4 c2 | %459
[Q:3/4=56] A4[Q:3/4=54] ^^F2 | ^^F2 G4) |[Q:3/4=52] z2 z2 z[Q:3/4=42] (g | %462
[Q:3/4=52]!pp! ag[Q:3/4=56]=gfed |[Q:3/4=56] c=c[Q:3/4=54]BA[Q:3/4=52]G>^^F | %464
[Q:3/4=58] ^^F2 G2) z2 | z6 |!mp!"^sostenuto"[Q:3/4=60] (D6 | C4[Q:3/4=80]!mp!!<(! D2[Q:3/4=40] | %468
[Q:3/4=60]{^B,CD} C4 B,2 | D6- |[Q:3/4=58] D6) |[Q:3/4=56] (^E4[Q:3/4=52]!mp! F2!<)! | %472
!mp![Q:3/4=60]!>(! [=B,^E^A]6- | [B,EA]6!>)! | [^A,F]6) |[Q:3/4=58] (^A4[Q:3/4=56] B2[Q:3/4=40] | %476
[Q:3/4=60] c6 |[Q:3/4=50] G6[Q:3/4=60] | [CF^A]6[Q:3/4=50] |[Q:3/4=60]{/c} !arpeggio![DFB]6 | %480
!mp!!>(! [=B,^E^A]6- | [B,EA]6!>)! | [^A,F]6) |[Q:3/4=56]!mp!!<(! (^A4[Q:3/4=52] B2 | %484
[Q:3/4=58] c6 | d6 |[Q:3/4=56]!mp! ^e6!<)! |[Q:3/4=54] [^^G^B]6[Q:3/4=52] || %488
[K:F][Q:3/4=60]!>(! !arpeggio![B,EA]6- | [B,EA]6!>)! | [A,F]6) | %491
[Q:3/4=56] A4[Q:3/4=52] B2[Q:3/4=45] |[Q:3/4=60] c6 |[Q:3/4=54] G6[Q:3/4=60] | %494
!<(! [CFA]6[Q:3/4=50] |[Q:3/4=60]{/c} !arpeggio![DFB]6!<)! |!mp![Q:3/4=56]!>(! !arpeggio![B,EA]6- | %497
[Q:3/4=52] [B,EA]6!>)![Q:3/4=48] ||[K:E][Q:3/4=60] [A,DF]4 z2 |"_dim." z6 |[Q:3/4=58] z6 | z6 | %502
[Q:3/4=56] z6 | z6 | z6 | z6 | !>!f6- | f4 (A,2 |!<(! ^^F,4 G,2 | ^B,4 D2 | F4 G2!<)! | %511
!mp![Q:3/4=50]!>(! B2[Q:3/4=48] A3 G)!>)! |!p![Q:3/4=60] (G6 | E4 F2 |!<(! G6- | %515
[Q:3/4=58] c4[Q:3/4=56] e2 |!mp![Q:3/4=60] e6!<)! | d4 c2 | c6[Q:3/4=56] |[Q:3/4=60]{^Bcd} c4 =B2 | %520
!mp! B6 | E4 F2 | G6 |[Q:3/4=58] B4[Q:3/4=56] A2 |[Q:3/4=60] G6- | G6 |[Q:3/4=58] D6) | %527
[Q:3/4=56]!<(! (^E2[Q:3/4=54] .F.G[Q:3/4=52].A[Q:3/4=110].B | %528
[Q:3/4=55] x!<)![Q:3/4=60] !arpeggio![Fc]6 |!<(! A4 B2 | c6 | f4 a2!<)! |!mp!!>(! (a6) | g4 f2 | %534
 (f6) | e4 =d2!>)! |!mp! =d6- |!>(! d6) |[Q:3/4=58] (A6- |[Q:3/4=56] A6!>)![Q:3/4=54] | %540
[Q:3/4=60] B6- | B6- | B6-[Q:3/4=56] |[Q:3/4=60] B6 | =c6- |[Q:3/4=58] c6-[Q:3/4=56] | %546
[Q:3/4=60] c6- | c6 |"_dim." A6- | A6- |[Q:3/4=58] A6- | A6) |[Q:3/4=56] (B6- | B6 | %554
[Q:3/4=54] F6- | F6 | [B,FG]6- | [B,FG]6 |"_cresc." G6- |!<(! G6) | ([CGc]6- | [CGc]6 | [CG]6- | %563
 [CG]6 | [CGA]6- | [CGA]6 | [FA]6- | [FA]4[Q:3/4=50] [E^A]2) |[Q:3/4=54] ([D^Ad]6- | [DAd-]6 | %570
 [D^Ad]6 | [Dd]6 | [Dd]6 | [Ee]6- |[Q:3/4=52] [Ee]6 |[Q:3/4=50] [^EB^^c^e]6!<)! | %576
!ff![Q:3/4=54]!>(! !arpeggio![DA=cdf]6- | [DAcdf]6)!>)! |!p![Q:3/4=65] z (A,"_cresc."=CD=GF | %579
[Q:3/4=75] EDFA=d=c |[Q:3/4=85] BA=c^d=gf |[Q:3/4=95] edfa=d'=c' |[Q:3/4=100] ba=c'^d'=g'f' | %583
 e'd'!8va(!f'a'=d''=c'' |!mf![Q:3/4=105]"_dim." b'a'=c''g'=g'f' | a'=f'e'd'^f'=d'!8va)! | %586
 c'=c'^d'b^a=a | =c'g=gfa=f | ed^f^dc=c | ^dB^A=A=cG | =GFA=FED | ^F=D=CB,DC | B,=CB,CB,C | %593
 B,=CB,CB,C |!mp!"_cresc." B,=CB,CB,C | B,=CB,CB,C | B,=CB,CB,C | B,=CB,CB,C | B,^CB,CB,C | %599
 B,CB,CB,C |"^Tempo Ⅰ"!f![Q:3/4=110] [B,B]6 | [Cc]6 | [G,G]6 | [Cc]6 | [FAB]6) | %605
[K:bass] !>!E,CB,CB,C | !>!C,CB,CB,C | !>!D,CB,CB,C | .B,2 z2 z2 |[K:treble]!>(! ([DA]6 | %610
 [EG]2 z [B,F] [B,E]2!>)! | [EG]6 |"^ten." [^A,EF]6) | !>![F,F]2 z2 z2 | !>![Ff]2 z2 z2 | %615
 !>![ff']2 z2 z2 | z2!<(! ([G,B,]2 .[B,E]2 | .[EG]2 .[GB]2 .[Be]2!<)! | !>![eg]6 | !>![=gc']6 | %620
!>(! .[fb]2 .[=d^g]2 .[c=a]2 | .[cf]2 .[^Bg]2 .[ce]2 | !>![Gc]6)!>)! | (!>![Bd]6 | .[Ge]2) z2 z2 | %625
 (!>!B,6- | B,6 |!<(! G,2 E3 B | B6-!<)! | B6- |!<(! B6 | c2 d2 e2)!<)! |!f! ([B,B]6 | [Cc]6 | %634
 [G,G]6 |!>(!{/D} !arpeggio![Dd]2 [Cc]3 [B,B]!>)! | [B,FAB]2)!mp! z[K:bass]!<(! x x2 | %637
 D,E,D,E,D,E, | D,E,D,E,D,E, | D,E,D,E,D,!mf!E,!<)! | .=D,2 z2 z2 |[K:treble]!>(! ([cec']6 | %642
 [Beb]2 z [Aea] [Geg]2!>)! |!mf! [Beb]6 | !>![EBe]6) | !>![G,G]2 z2 z2 | !>![Gg]2 z2 z2 | %647
 !>![gg']2 z2 z2 | z2 (.[G,B,]2!<(! .[B,E]2 | .[EG]2 .[GB]2 .[Be]2 | !>![eg]6 | !>![fc']6!<)! | %652
!>(! .[fb]2 .[e^g]2 .[e=a]2 | .[=df]2 .[Be]2 .[Ac]2!>)! | !>![FA]6) | (!>![E-B]6 | %656
 .[CEAc]2) z2 z2 | (E6- | E6 |!p!!<(! C2 A3 e!<)! |!mf!!>(! e6 | d4 c2 | c6 |!p! c6!>)! | %664
{/c} .F2) z2 z2 |!p!!<(! (^Bcdcgf | gf^efd'c' | ^abd'e'!8va(! e''2)!<)! | %668
!mf!!>(! d''^b'd''c''a'e'!8va)! | d'c'aedc | AEDC[I:staff +1]A,E, |[I:staff -1] z6!>)![Q:3/4=55] | %672
[Q:3/4=110]!<(!{CA} (e6 | d4 c2 | g6!<)! |!>(! f2 e2 ^B2 | e6 | d4 c2 | c6 | c6!>)! | %680
{/c} .F2) z2 z2 |!p!!<(! (^Bcdcgf | gf^efd'c' | ^abd'e'!8va(! e''2)!<)! | %684
!mf!!>(! d''^b'd''c''^a'e'!8va)! | d'c'^aedc | ^AEDC[I:staff +1]^A,!>)!E, | %687
[I:staff -1] z6[Q:3/4=80] |[Q:3/4=140]{/^A,} (3(A,E^A-)[Q:3/4=110]!>(! (e6 | d4 c2!>)! | %690
!mp!!>(!{/^A} !arpeggio!g6 | f4!>)! e2) |!>(! (e6 | d4 c2 | c6)!>)! |!<(! (c6!<)! | %696
 .[FBf]2) z2 z2 |!mp!!<(! (^efgfef | ^^fg^agfg | ^^g^abaga!<)! |!mf!!>(! bg'f'^e'=e'd' | %701
 c'b^agf^e | =edcB^AG | (F ^^F^AG^FE!>)! |!mp! .D2)) z2 z2 |!>(! (d'c'b^agf | ^edcB^AG | %707
 F^EDCB,G,)!>)! |"^ten." (!>!F,6- | F,6 | [^A,C]6 | [B,D]4{/F} [^A,E]2 | .[B,D]2) z2 z2 | %713
!mp!!<(! (^EFGFEF | ^^FG^AGFG | ^^G^ABAGA!<)! | B!mf!g!>(!f^e=ed | cB^AG^F^E | %718
[K:bass] =EDCB,^A,G, | F,^^F,^A,G,^F,!mp!E,!>)! | .D,2) z2 z2 | %721
[K:treble]!f![Q:3/4=80]!8va(! (d''f'[Q:3/4=90]^^f'g'[Q:3/4=100]a'd' | %722
[Q:3/4=110] e'^e'f'^bc'^^c'!8va)! | d'f^^fgad | e^ef^Bc^^c | dF^^FGA^B, | C^^CDF,^^F,G, | %727
 A,G,^^F,G,B,A, | .G,2) z2 z2 | .[G,^B,FG]2 z2 z2 | z6 |!mf! [FG^Bf]6- | [FGBf]4 z ([FGf] | %733
!>(! [EGce]4 [DGd]2 | [DGd]6 | [DGd]6)!>)! | ([FGd]4 [EGce]2 | [DG=Bd]6) |[K:bass]!p! D6- | D6 | %740
[K:treble]!f! ([CGBc]6 | [GBeg]6 | [CGBc]6 | [EF^Ad]6 | .[DB]2) z2 z2 |[K:bass]!p! ([E,G,B,-]6 | %746
!>(! [D,F,B,]6 | E2 D2 C2!>)! | [E,G,B,]6 | [F,B,D]6) |[K:treble] !>![dd']2 z2 z2 | %751
[K:bass]!f! !>![D,D]6 ||[K:Ab]!<(! ([E,E]6 | [_F,_F]6 | [=D,=D]6 | [E,E]6)!<)! |"^ten." ([E,DE]6- | %757
 [E,DE]6- |!<(! [E,DE]6- | [E,DE]6 | .[E,DE]2)!<)! z2 z2 |[K:treble]!>(! ([Gd]6 | %762
 [Ac]2 z [EB] [EA]2!>)! | [Ac]6 | [=DAB]6- | [DAB]6- | [DAB]6- | [DAB]6) | z2!p! (.[CE]2 .[EA]2 | %769
!<(! .[Ac]2 .[ce]2 .[ea]2 | [ac']6 |!mf! [_c'f']6!<)! |!>(! .[be']2 .[_g=c']2 .[fd']2 | %773
 .[_fb]2 .[ec']2 .[ea]2 | [df]6 | [Be]6!>)! | .[Ac]2) z2 z2 |!mp! (E6- | E6 |!<(! C2 A3 e!<)! | %780
!mf!"_cresc." e6 | d4 c2 | c6 | c6) |!f! ([Cc]6 |!<(! [Dd]6 | [=B,=B]6 | [Cc]6)!<)! | %788
"^ten."!f! ([CBc]6- | [CBc]6- |!<(! [CBc]6- | [CBc]6!<)! | .[Cc]2) z2 z2 |!>(! ([=EB]6 | %794
 [F=A]2 z [CG] [CF]2!>)! |!mf! [F=A]6 | [FG]6- ||[K:E] ([B,F=G]6 |!<(!"_cresc." [B,^E^G]6) | %799
!f! [^B,FA]6!<)! |!ff! .[CF^A]2)!<(![I:staff +1] (.[^A,C]2[I:staff -1] .[CF]2 | %801
 .[F^A]2 .[Ac]2 .[cf]2 | !>![f^a]6 | !>![=ad']6!<)! |!>(! .[gc']2 .[=e^a]2 .[db]2 | %805
 .[dg]2 .[^^c^a]2 .[df]2!>)! |!<(! !>![^Ad]6 | !>![c^e]6!<)! |!ff! .[df]2) z2 z2 |[K:bass] (A,6- | %810
 A,4!>(! G,=G, | F,=F,E,D,=D,C,!>)! | .^B,,2) z2 z2 |[K:treble]!f!!>(! (d4 ^E2 | F4 G2 | %815
 B4!>)! A2) | ([B,-^E-G]6 | [B,-E-A]6 | G2)"_leggiero"!mp!!<(! (A,CAG | F^^FGA^AB | ^Bc^^FGed | %821
 cde^ef^^f | gabaf'e' |!8va(! =d'e'f'=g'^g'a'!<)! |!<(! ^^f'g'^a'g'^e''d''!<)! | %825
!>(! c''^b'^a'g'f'^e'!8va)! | d'c'^b^ag^^f | ^f^edc^B^A!>)! | G!<(!^A^Bcd^e | fg^b!<)!^agf | %830
 ^ef^e'!>(!^bd'c' | g^edcG!>)!C) | ([C-^^F-^A]6 | [C-F-B]6 | ^A2)!mp!!<(! (B,DBA | G=A^AB^Bc | %836
 ^^cdAd^ag | fg^ab^bc' |!8va(! ^^c'd'e'd'g'f' | e'f'g'a'^a'b'!<)! ||[K:Eb]!>(! =a'b'c''b'e''c'' | %841
 b'c''b'=a'_a'g'!8va)! | f'e'd'c'b=a | _agfedc!>)! | B!<(!cdefg | abd'c'ba | %846
!mf! g!<)!bg'!>(!d'f'e' | bgeB!>)!!mp! E2) ||[K:E][Q:3/4=100] f3 g3 | e3 f3 | d3 e3 | c3 d3 | %852
 c3 B3 |!mp![Q:3/4=110]!<(! (Bdfbb'g'!<)! |!mf!!>(! f'c'bgfc | BGFC!>)! !>!B,2) | %856
!mp![Q:3/4=100] f3 g3 | e3 f3 | d3 e3 | c3 d3 | c3 B3 |[Q:3/4=110]!<(! (Bdfbb'g'!<)! | %862
!mf!!>(! f'c'bgfc | BGF!>)!C !>!B,2) |!mp![Q:3/4=100] (f3 g3 | e3 g3 | d3 e3 | c3 e3 | B3 c3 | %869
 A3 G3 |[Q:3/4=110]!<(! FA,EFAe!<)! |!mf!!>(! afeAFE)!>)! |[Q:3/4=100]!mf!!>(! (c6 | A3 G3!>)! | %874
[Q:3/4=110]!mf!!<(! FA,EFAe!<)! |!mf!!>(! c'feAFE)!>)! |!f!!>(! (e6 | d4 c2!>)! | B4 A2 | %879
!mf! G4 F2) |!<(! (F6 | G6 | B6!<)! | A6 | G6- | G6 | F6 |!<(! G4- GA!<)! | %888
 !arpeggio![EB]2)!p! z2 z2 | z6 |!>(! ([EG]6 | G4 F2!>)! | %892
!mp! !arpeggio![G,EB]2) ([Ac][GB][Ac][GB] | [Ac][GB][Ac][GB][Ac][GB]) |!<(! ([Ge]6 | f4 ^^f2!<)! | %896
!mp! !arpeggio![Geg]2) ([Ac][GB][Ac][GB] | [Ac][GB][Ac][GB][Ac][GB]) |!>(! ([EG]6 | %899
 [^A,E=G]4 [=A,DF]2!>)! |!mp! !arpeggio![G,EB]2) ([Ac][GB][Ac][GB] | [Ac][GB][Ac][GB][Ac][GB]) | %902
!<(! [eb]6 | b6!<)! |!mp! [egb]2"_dim."!>(! ([Ac][GB][Ac][GB] | [Ac][GB][Ac][GB][Ac][GB])!>)! | %906
!mp!!<(! [eb]6 | b2- b3 b!<)! |!mp!"_dim."{/c'} [egb]2!>(! ([Ac][GB][Ac][GB] | %909
 [Ac][GB][Ac][GB][Ac][GB])!>)! | ([eb]6 | b2- b3 b |!>(! c'2 b2)!>)!!p! (.e2 | %913
 .[eg]2 .[gb]2 .[be']2 | [e'g']6 |!8va(! [=g'c'']6 | .[f'b']2"_dim." .[=d'^g']2 .[c'=a']2 | %917
[Q:3/4=108] .[c'f']2 .[^bg']2 .[c'e']2!8va)! |[Q:3/4=106] .[^ac']2 .[bd']2 .[^ge']2 | %919
[Q:3/4=104] .[=gc']2 .[fb]2 .[=d^g]2 |[Q:3/4=102] .[c=a]2 .[cf]2 .[^Bg]2 | %921
[Q:3/4=100] .[ce]2 .[^Ad]2 .[G=B]2 |[Q:3/4=98] .[^E^A]2 .[D^F]2 .[EG]2 | %923
!pp![Q:3/4=96] .[F=A]2 .[C=E]2 .[CF]2 | .[B,EG]2) z2 z2 | (!>!CE[Gc]ECE | %926
[Q:3/4=110]"^a tempo"!mp!!<(! !>!G,B,[EG]B,G,B, | !>!CE[Gc]ECE!<)! | %928
"^più presto"!mp![Q:3/4=114]"_cresc." !>!B,E[GB]EB,E | !>!DG[Bd]GDG | !>!FG[Bf]GFG | !>!EG[Be]GEG | %932
[Q:3/4=118] !>!AB[ea]BAB | !>!GB[eg]BGB | !>!ce[gc']ece | !>!Be[gb]eBe | !>!^Ae[g^a]eAe | %937
 !>!Be[gb]eBe) |!f! (!>!ce gc'!8va(! .[g'c'']2)!8va)! | (!>!GBeg .[e'g']2) | .[A,B,]2 z2 z2 | %941
!ff! (!>![ABda]6 |!>(! [GBeg]3 [Ff]!f! [EBe]2!>)! | [Geg]6) | [=A,B,]6 |!ff! (!>![ABda]6 | %946
!>(! [GBeg]3 [Ff]!f! [EBe]2!>)! | !>![Geg]6) | !>![Geg]6 |!ff!!>(! [=ce=c']2 [Bb]2!f! [^A^a]2!>)! | %950
!ff!!>(! [^ce^c']2 [Bb]2!f! [^A^a]2!>)! |!ff!!>(!!8va(! [c'c'']2 [bb']2!f! [^a^a']2!>)! | %952
!ff! [c'c'']2 [bb']2 [^^f^^f']2 | [aa']2 [gg']2!8va)! [dd']2 | [ff']2 [ee']2 [Gg]2 | %955
 [cc']2 [Bb]2 [^^F^^f]2 | [Aa]2 [Gg]2 [Dd]2 | [Ff]2 [Ee]2 [G,G]2 | [Cc]2 z2 z2 | %959
[I:staff +1] (!>![D,A,B,D]6 |[Q:3/4=60] .[E,G,E]2)[Q:3/4=110] (6:4:6F,,G,,A,,B,,C,D, | %961
(9:6:9E,F,G,A,B,C[I:staff -1]DEF |(9:6:9GABcdefga |!8va(!(6:4:6bc'd'e'f'g'(4:2:4a'b'c''d'' | %964
[Q:3/4=110] e''2!8va)! z2 z2 |[Q:3/4=100] [GBeg]6 |[Q:3/4=30] x6 |] %967
V:2
 B,,6 | C,6 | G,,6 | C,6 | [B,,,B,,]6- | [B,,,B,,]6- | [B,,,B,,]6- | [B,,,B,,]6 | %8
!ped! .B,,,2 z2 z2 | [B,,F,B,]6!ped-up! | [E,B,]2 z [E,A,] [E,G,]2 | [E,B,]6 | [C,F,]6- | %13
 [C,F,]6- | [C,F,]6- | [C,F,]6 |!ped! B,,4 .G,2 | x6 | x6!ped-up! | x6 | x6 | x6 | x6 | x6 | %24
!ped! .[E,B,]2!ped-up! z2 z2 |!ped! B,,6- | B,,6 | E,,2 B,,3 B, | B,6-!ped-up! | B,6- | B,6- | %31
 B,6 | B,,6 | C,6 | G,,6 | C,6 |!ped! [D,,B,,F,]6- | [D,,B,,F,]6- | [D,,B,,F,]6- | [D,,B,,-F,]6 | %40
 B,,6 | [B,,F,B,]6!ped-up! | [E,B,]2 z [E,A,] [E,G,]2 | [E,B,]6 |!ped! [=D,E,]6- | [D,E,]6- | %46
 [D,E,]6- | [D,E,]6 | .=D,,2 z2 .G,2 | x6 | x6!ped-up! | x6 | x6 | x6 | [=D,A,=D]6 | [E,-G,=D]6 | %56
!ped! .[A,,E,A,]2!ped-up! z2 z2 |!ped! !>!E,6- | E,6 | A,,2 E,3 E | E6!ped-up! | D4 C2 | C6 | C6 | %64
!ped! .[A,E]2 z2 z2 | z6!ped-up! |[K:treble] !>![A,EF]2 z2 z2 | !>![B,EG]2 z2 z2 | %68
!<(! (!>!B2 A2 c2!<)! | e2) z2 z2 |[K:bass] z6 |!ped! .A,,,2 z2 z2 |{A,,E,} E6 | D4!ped-up! C2 | %74
 G6 | F2 E2 ^B,2 | E6 | D4 C2 | C6 | C6 |!ped! .[^A,E]2 z2 z2 | z6!ped-up! | %82
[K:treble] !>![^A,EF]2 z2 z2 | !>![B,EG]2 z2 z2 |!<(! (!>!B2 ^A2 c2!<)! | e2) z2 z2 |[K:bass] z6 | %87
!ped! .F,,,2 z2 z2 | x2 x4 x2 | x4!ped-up! x2!ped! | E6 | D4 C2 | G6 | F4 E2 | E6 | ^A,6 | %96
!ped! .[D,B,]2 z2!ped-up! z2 | (F6 | ^A,6 | D4 C2 | B,6 | G6 |!ped! E6)!ped-up! | %103
[I:staff -1] F[I:staff +1] x x4 |!ped![I:staff -1] D2[I:staff +1] z2 z2!ped-up! | z6 | %106
!ped! (B,6!ped-up! | C2) z2 z2 | D,6 | D,6 | (E,6 | D,4 C,2 |!ped! .B,,2)!ped-up! z2 z2 | F,6- | %114
 F,6 | F,6- |!ped! F,6!ped-up! | ^^F,6 |!ped! G,2 z2 z2!ped-up! | E,6 | %120
!ped! .[^B,,,=A,,]2 z2 z2!ped-up! |[K:treble] d'f^^fgad | e^ef^Bc^^c | dF^^FGAD | E^EF^B,C^^C | %125
[K:bass] DF,^^F,G,A,^B,, | C,^^C,D,F,,^^F,,G,, | A,,G,,^^F,,G,,B,,A,, |!ped! .G,,2 z2 z2!ped-up! | %129
!ped! .[G,,,G,,]2!ped-up! z2 z2 | z6 | !>![D,G,^B,]6- | [D,G,B,]4 z [D,G,^B,] | %133
 [E,G,C]4 [F,G,^B,]2 |!ped! [F,G,^B,]6!ped-up! | [F,G,^B,]6 | ([G,,,G,,]4 [C,,C,]2 | [G,,G,]6) | %138
 D,6- | D,6 | ([E,,E,]6 | [C,,,C,,]6 | [E,,,E,,]6 | [F,,,F,,]6 |!ped! .[B,,,B,,]2) z2!ped-up! z2 | %145
 B,,6- | B,,6 | B,,6 | [B,,,B,,]6- |!ped! [B,,,B,,]6!ped-up! | !>!D6- | D6 ||[K:Ab] E,,6 | _F,,6 | %154
 =D,,6 | E,,6 | !>![B,,,E,,]6- | [B,,,E,,]6- | [B,,,E,,]6- | [B,,,E,,]6 | %160
!ped! .E,,,2 z2 z2!ped-up! | !arpeggio![E,F]6 | [A,E]2 z [A,D] [A,C]2 | [A,E]6 | [F,B,]6- | %165
 [F,B,-]6 |!>(! B,6- | B,6!>)! |!ped! .E,,2 z2 .C2!ped-up! | x6 | x6 | x6 | x6 | x6 | x6 | x6 | %176
!ped! .[A,E]2 z2 z2!ped-up! | !>!E,6- | E,6 |!ped! A,,2!ped-up! E,3 E | E6 | D4 C2 | %182
!ped! C6!ped-up! | C6 | C,6 | D,6 | =B,,6 | C,6 |!ped! !>![G,,C,G,]6-!ped-up! | [G,,C,G,]6- | %190
 [G,,C,G,]6- | [G,,C,G,]6 |!ped! .C,,2 z2 z2!ped-up! | !arpeggio![C,=D]6 | %194
 [F,C]2 z [F,B,] [F,=A,]2 | [F,C]6 | !>![=D,=B,]6- ||[K:E] [D,B,]6- | [D,B,]6 | (=D,,6 | %200
!ped! .C,,2) .C,2 .^A,2!ped-up! | x6 | x6 | x6 | x6 | x6 | x6 | x6 |!ped! x2 z2 z2!ped-up! | %209
 (!>!A,,6- | A,,4 G,,=G,, | F,,=F,,E,,D,,=D,,C,, |!ped! .^B,,,2)!ped-up! z2 z2 | D6 | F,4 G,2 | %215
 B,4 A,2 | (!>!C,,2!<(! ^B,,,C,,^B,,C, | =D,C,^B,,C,=DC!<)! |!ped! .C,2) z2 z2!ped-up! | %219
 [A,C-F-]6 |!>(! (F2!>)!!ped! E2)!ped-up! .C,2 | .[G,CE]2 z2 z2 | %222
!>(! (E2!>)!!ped! =D2) .F,,2!ped-up! | .[F,A,=D]2 z2 z2 | (!arpeggio![G,,^E,C]6 | G,6 | ^E6 | %227
 F6!ped-up!!ped! | [F,-G,-^B,-^E]6 | [F,G,B,D]6) |!ped! (D2!ped-up!!ped! ^E2 G,2!ped-up! | %231
 C2) z2 z2 | (!>!D,,2!<(! ^^C,,D,,^^C,D, | E,D,^^C,D,ED!<)! |!ped! .D,2) z2 z2!ped-up! | %235
 [B,D-G-]6 |!>(! (G2!>)!!ped! F2)!ped-up! .D,2 | .[^A,DF]2 z2 z2 | %238
!>(! (F2!>)!!ped! E2) .G,,2!ped-up! | .[E,B,E]2 z2 z2 ||[K:Eb] (!arpeggio![B,,G,E]6 | B,6 | G6 | %243
 A6!ped-up!!ped! | [A,-B,-D-G]6 | [A,B,DF]6) |!ped! (F2!ped-up!!ped! G2 B,2!ped-up! | E2) z2 z2 || %248
[K:E]!ped! .B,,2 (D2 B,2!ped-up! | E,2 E2 C2 | F,2 D2 B,2 |!ped! .F,,2) (^A,2 F,2!ped-up! | %252
 B,,2 B,2!ped!!ped-up! F,2 | D2[K:treble] B,2 F2 | !>!d2) z2 z2 | z6 | %256
[K:bass]!ped! .B,,,2 (D2 B,2!ped-up! | E,2 E2 C2 | F,2 D2 B,2 |!ped! .F,,2) (^A,2 F,2!ped-up! | %260
 B,,2 B,2!ped!!ped-up! F,2 | D2[K:treble] B,2 F2 | !>!f2) z2 z2 | z6 | %264
[K:bass]!ped! .B,,,2 (D2 B,2!ped-up! | E,2 E2 C2 | F,2 D2 B,2 |!ped! .F,,2) (^A,2 F,2-!ped-up! | %268
 F,4 G,2- |!ped! G,4 F,2-!ped-up! | F,4 E,2- |!ped! E,4 D,2!ped-up! |!ped! [E,,B,,]6-)!ped-up! | %273
 [E,,B,,]6- | [E,,B,,]6- | [E,,B,,]6 | !>!B,,6- | B,,6- | B,,6- | B,,6 | %280
!ped! .B,,,2 z2 z2!ped-up! | [B,,F,B,]6 | [E,B,]2 z [E,A,] [E,G,]2 | [E,B,]6 | F,6- | %285
!<(! F,6-!<)! |!>(! F,6- | F,6!>)! |!ped! .B,,,2 B,,2 .G,2!ped-up! | x6 | x6 | x6 | x6 | x6 | x6 | %295
 x6 |!ped! .[E,B,]2 z2 z2!ped-up! |!ped! B,,6-!ped-up! | B,,6 | E,,2 B,,3 B, | B,6- | B,6- | B,6 | %303
 C2 D2 E2 |!ped! B,,6!ped-up! | C,6 | G,,6!ped!!ped-up! | D,2 C,3 B,, | B,,6- | B,,6- | B,,6- | %311
 B,,6- |!ped! B,,6!ped-up! | [B,,F,B,]6 | [E,B,]2 z [E,A,] [E,G,]2 | [E,B,]6 | (!>!=D,6 | %317
 E,,4 ^D,,2 | E,,4 ^E,,2 | F,,4 =E,,2 |!ped! .=D,,2) z2 .G,2!ped-up! | x6 | x6 | x6 | x6 | x6 | %326
 [=D,A,=D]6 | [E,-G,=D]6 |!ped! .[A,,E,A,]2 z2 z2!ped-up! |!ped! !>!E,6-!ped-up! | E,6 | %331
 A,,2 E,3 E | E6 | D4 C2 | C6 | C6 |!ped! .[A,E]2 z2 z2!ped-up! | z6 |[K:treble] !>![A,EF]2 z2 z2 | %339
 !>![B,EG]2 z2 z2 |!<(! (!>!B2 A2 c2!<)! | e2) z2 z2 |[K:bass] z6 |!ped! .A,,,2!ped-up! z2 z2 | %344
!ped! .[^A,,E,]2!ped-up! z2 z2 | z6 |[K:treble] !>![^A,EF]2 z2 z2 | !>![B,EG]2 z2 z2 | %348
!<(! (!>!B2 ^A2 c2!<)! | e2) z2 z2 |[K:bass] z6 |!mp!!ped! .F,,,2!ped-up! z2 z2 | %352
!ped! D,,2!ped-up! z2 z2 | x2 x2 z2 |!ped! [D,,B,,]2!ped-up! z2 z2 |!ped! [E,,B,,]2!ped-up! z2 z2 | %356
 (!>!E,2 D,2 F,2 | B,2) z2 z2 | (!>!F,2 ^E,2 G,2 | C2) z2 z2 |!ped! [A,,,A,,]2!ped-up! z2 z2 | %361
 x2 x2 z2 |!ped! [A,,F,]2!ped-up! z2 z2 |!ped! [B,,G,]2!ped-up! z2 z2 | (!>!B,2 ^A,2 C2 | %365
 =G2) z2 z2 | (!>!C2 ^B,2 D2 | A2) z2 z2 | (!>![C,,C,]2!ped-up!!ped! [^B,,,^B,,]2 [D,,D,]2 | %369
 [F,,F,]2 [A,,A,]2 [F,F]2) | (!>![D,,D,]2!ped! [^^C,,^^C,]2 [^E,,^E,]2!ped-up! | %371
 [G,,G,]2 [B,,B,]2 [G,G]2) | (!>![G,,G,]2!ped! [^^F,,^^F,]2 [^A,,^A,]2!ped-up! | %373
 [C,C]2 [E,E]2 [^^F,^^F]2 |[K:treble] [^A,^A]2 [Cc]2 [Ee]2 | [^^F^^f]2) z2[K:bass] [C,,C,]2 | %376
 [^B,,,^B,,]6 | [=A,,,A,,]6 | [G,,,G,,]6 | [E,,,E,,]6 | [E,,,E,,]2 [D,,,D,,]2 [C,,,C,,]2 | %381
!ped! .[^B,,,,^B,,,]2 z2 z2!ped-up! | z6 |!ped! z6!ped-up! | z6 | z6 | z6 | z6 | z6 | z6 | z6 | %391
 z6 |!ped! (C,,2 G,,2 C,2!ped-up! | E,2 G,3 G,,) |!ped! (C,,2 G,,2 C,2!ped-up! | E,2 G,3 G,,) | %396
 (C,,2 G,,2 C,2 | E,2 G,3 G,,) |!ped! (C,,2 G,,2 C,2!ped-up! | E,2 G,3 G,,) | %400
!ped! (E,,2 B,,2 E,2!ped-up! | G,2 B,3 B,,) |!ped! (E,,2 B,,2 E,2!ped-up! | G,2 B,3 B,,) | %404
!ped! (E,,2 B,,2 E,2!ped-up! | G,2 B,3 B,,) |!ped! (G,,2 D,2 B,2)!ped-up! | %407
!ped! (C,,2 C,2 B,2)!ped-up! |!ped! (F,,2 C,2 F,2!ped-up! | A,2 C3 C,) | %410
!ped! (F,,2 C,2 F,2!ped-up! | A,2 C3 C,) |!ped! (F,,2 =D,2 A,2!ped-up! | =D2 A3 A,) | %414
!ped! (F,,2 =D,2 A,2!ped-up! | =D2 A3 A,) |!ped! (F,,2 ^D,2 G,2)!ped-up! | %417
!ped! (E,,2 C,2 G,2-)!ped-up! | G,2!ped! ^^F,2 A,2!ped-up! | C2 E3 E,- | %420
 E,2!ped!!<(! D,2 G,2!ped-up! | ^B,2 D3!<)! D, |!ped! (G,,2 E,2 A,2!ped-up! | C2 ^^F2 E,2) | %424
!ped! (G,,2 D,2 G,2!ped-up! | ^B,2 D3) (D, |!ped! G,,2 D,2 ^B,2!ped-up! | %427
!ped! ^A,2 D,2 ^B,2)!ped-up! |!ped! (G,,2!<(! D,2 G,2 |!ped-up!!ped! G2!<)! G,2 D,2)!ped-up! | %430
 (G,,2 D,2 F,2 | A,2!ped-up!!ped! G,2 G,,2) |!ped! (C,,2 G,,2 C,2!ped-up! | E,2 G,3 G,,) | %434
!ped! (C,,2 G,,2 C,2!ped-up! | E,2 G,3 G,,) |!ped! (C,,2 A,,2 E,2!ped-up! | A,2 E3 E,) | %438
!ped! (C,2 E2 A,2)!ped-up! |!ped! (D,2 F2 B,2)!ped-up! |!ped! (E,,2 B,,2 E,2!ped-up! | %441
 G,2 B,3 B,,) |!ped! (E,,2 B,,2 E,2-!ped-up! | B,2 E2 A,,2) |!ped! (E,,2 B,,2!ped-up! E,2 | %445
 G,2 B,3 B,,) |!ped! (G,,2 D,2 B,2)!ped-up! |!ped! (C,,2 C,2 C2)!ped-up! | %448
!ped! x (F,,2 C,2 F,2!ped-up! | A,2 C3 C,) |!ped! (F,,2 C,2 F,2!ped-up! | A,2 C3 C,) | %452
!ped! (F,,2 =D,2 A,2!ped-up! | =D2 A3 A,) |!ped! (F,,2 =D,2 A,2!ped-up! | =D2 A3 A,) | %456
!ped! (F,,2!ped-up! ^D,2 G,2) |!ped! (E,,2 E,2 G,2)!ped-up! | (A,,2!ped! E,2 A,2!ped-up! | %459
 C2 E3 E,-) | (E,2!<(!!ped! D,2 G,2!ped-up! | ^B,2 D3!<)! D,) |!ped! (G,,2 E,2 A,2!ped-up! | %463
 C2 ^^F2 E,2) |!ped! (G,,2 D,2 G,2!ped-up! | ^B,2 D3 D,) |!ped! (G,,2 D,2 ^B,2!ped-up! | %467
!ped! ^A,2 D,2 ^B,2)!ped-up! |!ped! (G,,2 D,2 G,2!ped-up! |!ped! F,2 G,,2 G,,,2!ped-up! | %470
 G,,2 F,2 G,2 |!ped! ^B,2 G,2 D,2)!ped-up! |!ped! (C,,2 C,2 G,2!ped-up! | B,2 C3 C,) | %474
!ped! (C,,2 C,2 F,2!ped-up! | ^A,2 C3 C,)!ped!!ped-up! | (C,,2 C,2 G,2 |!ped! B,2 C2 C,2)!ped-up! | %478
!ped! (F,,2 ^A,2 F,2)!ped-up!!ped!!ped-up! | B,,2 D2 G,2 |!ped! (C,,2 C,2 G,2!ped-up! | %481
 B,2 C3 C,) |!ped! (C,,2 C,2 F,2!ped-up! | ^A,2 C3 C,) |!ped! (F,,2 F,2 ^A,2!ped-up! | %485
 ^B,2 D2 F,2) |!ped! (^E,,2 ^B,,2 ^E,2!ped-up! |!ped! ^^G,2 ^B,2 ^B,,2)!ped-up! || %488
[K:F]!ped! (F,,2 C,2 F,2!ped-up! | B,2 C3 C,) |!ped! (C,,2 C,2 F,2!ped-up! | %491
 A,2 C3 C,)!ped!!ped-up! | (C,,2 C,2 G,2 |!ped! B,2 C2 C,2)!ped-up! | %494
!ped! (F,,2 A,2 F,2)!ped-up!!ped!!ped-up! | (B,,2 D2 G,2) |!ped! (C,,2 C,2 G,2!ped-up! | %497
 B,2 C2 C,2) ||[K:E]!ped! [^B,,,^B,,]2 B,,2 D,2!ped-up! | F,2 A,2 ^B,,2 | D,2 F,2 A,2 | %501
 ^B,2 D2 F,2 | A,2 ^B,2 D2 |[I:staff -1] F2 A2 ^B,2 | D2 F2 A2 | ^B2 d2 F2 |[I:staff +1] z6 | z6 | %508
 z6 | z6 | z6 | z6 |!ped! (C,,2 G,,2 C,2!ped-up! | E,2 G,3 G,,) |!ped! (C,,2 G,,2 C,2!ped-up! | %515
 E,2 G,3 G,,) |!ped! (C,,2 A,,2 E,2!ped-up! | A,2 E3 F,) |!ped! (C,2 E2 A,2)!ped-up! | %519
!ped! (D,2 F2 B,2)!ped-up! |!ped! (E,,2 B,,2 E,2!ped-up! | G,2 B,3 B,,) | %522
!ped! (E,,2 B,,2 E,2)!ped-up! |!ped! (E,,2 A,,2 E,2)!ped-up! |!ped! (E,,2 B,,2 E,2!ped-up! | %525
 G,2 B,3 B,,) |!ped! ((G,,2 D,2 B,2))!ped-up! |!ped! (C,,2 C,2 C2)!ped-up! | %528
!ped! x (F,,2 C,2 F,2!ped-up! | A,2 C3 C,) |!ped! (F,,2 C,2 F,2!ped-up! | A,2 C3 C,) | %532
!ped! (F,,2 =D,2 A,2!ped-up! | =D2 A3 A,) |!ped! (F,,2 =D,2 A,2!ped-up! | =D2 A3 A,) | %536
!ped! (F,,2 =D,2 A,2!ped-up! | =D,2 =D2 D,2) |!ped! (=D,,2!ped-up! =D,2 A,2 | =C2 =D2 =D,2) | %540
!ped! (=G,,2 =D,2 =G,2!ped-up! | B,2 =D3 =D,) |!ped! (=G,,2 =D,2 =G,2!ped-up! | B,2 =D2 =G,,2) | %544
!<(!!ped! (=C,,2 =G,,2 =C,2!ped-up! | =G,2 =C3 E!<)! | E6) | z6 |!ped! (=F,,2 =C,2 =F,2!ped-up! | %549
 A,2 =C3 =C,) |!ped! (=F,,2 =C,2 =F,2!ped-up! | A,2 =C2 =C,2) | %552
"^poco"!ped! (B,,,2 ^F,,2 B,,2!ped-up! | F,2 B,3"^a" D | !>!D2 B,2 F,2 |"^poco" B,,2 F,,2 B,,2) | %556
!ped! (B,,,2 E,,2 B,,2!ped-up! | E,2 B,3 E |!ped! !>!E2 B,2!mp! E,2!ped-up! | B,,2 E,,2 B,,2) | %560
!mp!!ped! (B,,,2 ^E,,2 B,,2!ped-up! | ^E,2 B,3 ^E | !>!^E2 B,2 ^E,2 | B,,2 ^E,,2 B,,2) | %564
!mf!!ped! (B,,,2 F,,2!>(! B,,2!ped-up!!>)! | F,2 B,3 F |!ped! !>!F2 B,2 F,2!ped-up! | %567
 B,,2 F,,2 B,,2) |!mf!!ped! (B,,,2 ^^F,,2 B,,2!ped-up! | ^^F,2 B,3 ^^F | %570
!ped! !>!^^F2 B,2 ^^F,2!ped-up! | B,,2 ^^F,,2 B,,2) |!f!!ped! (B,,,2 G,,2 B,,2!ped-up! | %573
 G,2 B,3 G | !>!G2 B,2 G,2 |!ped! B,,2 G,,2 B,,2)!ped-up!!ped!!ped-up! | (B,,,2 =C,2 B,,,2 | %577
 =C,2 B,,,2 C,2) |!ped! (B,,2 =C2 B,,2!ped-up! | =C2 B,,2 C2 | B,,2 =C2 B,,2 | =C2 B,,2 C2 | %582
!ped! B,,2 F,2 B,,2!ped-up! | F,2 B,,2 F,2 |!ped! B,,2 !>!A,2 B,,2!ped-up! | A,2 B,,2 A,2 | %586
 B,,2 A,2 B,,2 | A,2 B,,2 A,2 |!ped! B,,2 [E,A,]2 B,,2!ped-up! | [E,A,]2 B,,2 [E,A,]2 | %590
 B,,2 [E,A,]2 B,,2- | [E,A,]4 [E,A,]2 |!ped! [B,,^D,A,]2) z2 z2!ped-up! | z6 | (B,,=C,B,,C,B,,C, | %595
 B,,=C,B,,C,B,,C, |!ped! !>!^A,,=C,B,,C,B,,C,!ped-up! |!ped! !>!=A,,=C,B,,C,B,,C,!ped-up! | %598
!ped! !>!^G,,^C,B,,C,B,,C,!ped-up! |!ped! !>!F,,C,B,,C,B,,C,)!ped-up! | B,,C,B,,C,B,,C, | %601
 B,,C,B,,C,B,,C, | B,,C,B,,C,B,,C, | B,,C,B,,C,B,,C, | B,,C,B,,C,B,,C, | %605
!ped! !>!E,,C,B,,C,B,,C,!ped-up! |!ped! !>!C,,C,B,,C,B,,C,!ped-up! | %607
!ped! !>!D,,C,B,,C,B,,C,!ped-up! |!ped! .B,,,2 z2 z2!ped-up! | [B,,F,B,]6 | %610
 [E,B,]2 z [E,A,] [E,G,]2 | [E,B,]6 |!ped! [C,F,]6!ped-up! | !>![F,,,F,,]2 z2 z2 | %614
 !>![F,,F,]2 z2 z2 | !>![F,F]2 z2 z2 |!ped! .[B,,,B,,]2 z2 .G,2!ped-up! | x6 | x6 | x6 | x6 | x6 | %622
 x6 | x6 |!ped! .[E,B,]2 z2 z2!ped-up! |!ped! B,,6-!ped-up! | B,,6 | E,,2 B,,3 B, | B,6- | B,6- | %630
 B,6 | C2 D2 E2 | B,,C,B,,C,B,,C, | B,,C,B,,C,B,,C, | B,,C,B,,C,B,,C, | B,,C,B,,C,B,,C, | %636
!ped! (D,,E,,D,,E,,D,,E,,!ped-up! | D,,E,,D,,E,,D,,E,, | D,,E,,D,,E,,D,,E,, | D,,E,,D,,E,,D,,E,, | %640
!ped! .=D,,2) z2 z2!ped-up! |[K:treble] [=DEA]6 | [=DEG]2 z [DF] [DE]2 | [=DEG]6 | %644
[K:bass]!ped! [=D,G,B,=D]6!ped-up! | !>![G,,,G,,]2 z2 z2 | !>![G,,G,]2 z2 z2 | !>![G,G]2 z2 z2 | %648
!ped! .[=D,,,=D,,]2 z2 .G,2!ped-up! | x6 | x6 | x6 | x6 | x6 | [=D,A,=D]6 | [E,-G,=D]6 | %656
!ped! .[A,,E,A,]2 z2 z2!ped-up! |!ped! !>!E,6-!ped-up! | E,6 | A,,2 E,3 E | E6 | D4 C2 | C6 | C6 | %664
!ped! .[A,E]2 z2 z2!ped-up! | z6 |[K:treble] !>![A,EF]2 z2 z2 | !>![B,EG]2 z2 z2 | %668
!<(! (!>!B2 A2 c2!<)! | e2) z2 z2 |[K:bass] z6 |!ped! .A,,,2!ped-up! z2 z2 |{A,,E,} E6 | D4 C2 | %674
 G6 | F2 E2 ^B,2 | E6 | D4 C2 |!ped! C6!ped-up! | C6 |!ped! .[^A,E]2 z2 z2!ped-up! | z6 | %682
[K:treble] !>![^A,EF]2 z2 z2 | !>![B,EG]2 z2 z2 |!<(! (!>!B2 ^A2 c2!<)! | e2) z2 z2 |[K:bass] z6 | %687
!ped! .F,,,2!ped-up! z2 z2 | x2 x4 x2 | x4!ped-up! x2!ped! | E6 | D4 C2 | G6 | F4 E2 | E6 | ^A,6 | %696
!ped! .[D,B,]2 z2!ped-up! z2 | (F6 | ^A,6 | D4 C2 | B,6 | G6 | E6) | %703
[I:staff -1] F[I:staff +1] x x4 |!ped![I:staff -1] D2!ped-up![I:staff +1] z2 z2 | z6 | %706
!ped! (B,6!ped-up! | C2) z2 z2 | D,6- | D,6 | (E,6 | D,4 C,2 |!ped! .B,,2)!ped-up! z2 z2 | %713
 !>!F,6- | F,6 | !>!F,6- |!ped! F,6!ped-up! | ^^F,6 |!ped! G,2 z2 z2!ped-up! | E,6 | %720
!ped! .[^B,,,=A,,]2 z2 z2!ped-up! |[K:treble] d'f^^fgad | e^ef^Bc^^c | dF^^FGAD | E^EF^B,C^^C | %725
[K:bass] DF,^^F,G,A,^B,, | C,^^C,D,F,,^^F,,G,, | A,,G,,^^F,,G,,B,,A,, |!ped! .G,,2 z2 z2!ped-up! | %729
!ped! .[G,,,G,,]2!ped-up! z2 z2 | z6 | !arpeggio!!>![G,,D,G,D]6- | [G,,D,G,D]4 z [D,G,^B,] | %733
 [E,G,C]4 [F,G,^B,]2 |!ped! [F,G,^B,]6!ped-up! | [F,G,^B,]6 | ([G,,,G,,]4 [C,,C,]2 | [G,,G,]6) | %738
 D,6- | D,6 | ([E,,E,]6 | [C,,,C,,]6 | [E,,,E,,]6 | [F,,,F,,]6 |!ped! .[B,,,B,,]2) z2!ped-up! z2 | %745
 B,,6- | B,,6 | B,,6 | [B,,,B,,]6- |!ped! [B,,,B,,]6!ped-up! | !>!D2 z2 z2 | D,,6 ||[K:Ab] E,,6 | %753
 _F,,6 | =D,,6 | E,,6 | !>![B,,,B,,]6 | [_C,,_C,]6 | [=A,,,=A,,]6 | %759
 [_C,,_C,]2 [B,,,B,,]2 [G,,,G,,]2 |!ped! .[E,,,E,,]2 z2 z2!ped-up! | !arpeggio![E,F]6 | %762
 [A,E]2 z [A,D] [A,C]2 | [A,E]6 |!<(! B,6- | B,6-!<)! |!>(! B,6- | B,6!>)! | %768
!ped! .E,,2 z2 .C2!ped-up! | x6 | x6 | x6 | x6 | x6 | x6 | x6 |!ped! .[A,E]2 z2 z2!ped-up! | %777
!ped! !>!E,6-!ped-up! | E,6 | A,,2 E,3 E | E6 | D4 C2 |!ped! C6!ped-up! | C6 | C,6 | D,6 | =B,,6 | %787
 C,6 | [G,,C,-G,]6 | [A,,C,-A,]6 | [^F,,C,-^F,]6 | [A,,C,A,]2 [G,,G,]2 [=E,,=E,]2 | %792
!ped! .C,,2 z2 z2!ped-up! | !arpeggio![C,=D]6 | [F,C]2 z [F,B,] [F,=A,]2 | [F,C]6 | %796
 !>![=D,-=B,]6 ||[K:E] [=D,,=D,]6- | [D,,D,]6 | ([=D,,,=D,,]6 | %800
!ped! .[C,,,C,,]2) z2 .^A,2!ped-up! | x6 | x6 | x6 | x6 | x6 | x6 | x6 |!ped! x2 z2 z2!ped-up! | %809
 (!>!A,,6- | A,,4 G,,=G,, | F,,=F,,E,,D,,=D,,C,, |!ped! .^B,,,2) z2!ped-up! z2 | D4 ^E,2 | %814
 F,4 G,2 | B,4 A,2 | (!>!C,,2!p!!<(! ^B,,,C,,^B,,C, | =D,C,^B,,C,=DC!<)! | %818
!ped! .C,2) z2 z2!ped-up! | [A,C-F-]6 |!>(! (F2!ped! E2)!ped-up!!>)! .C,2 | .[G,CE]2 z2 z2 | %822
!>(! (E2!ped! =D2)!>)! .F,,2!ped-up! | .[F,A,=D]2 z2 z2 |!ped! (!arpeggio![G,,^E,C]6!ped-up! | %825
 G,6 | ^E6 | F6!ped!!ped-up! | [F,-G,-^B,-^E]6 | [F,G,B,D]6) | %830
!ped! (D2!ped-up!!ped! ^E2 G,2!ped-up! | C2) z2 z2 | (!>!D,,2!<(! ^^C,,D,,^^C,D, | %833
 E,D,^^C,D,ED!<)! |!ped! .D,2) z2 z2!ped-up! | [B,D-G-]6 |!>(! (G2!>)!!ped! F2)!ped-up! .D,2 | %837
 .[^A,DF]2 z2 z2 |!>(! (F2!ped! E2)!>)! .G,,2!ped-up! | .[E,B,E]2 z2 z2 || %840
[K:Eb]!ped! (!arpeggio![B,,G,E]6!ped-up! | B,6 | G6 | A6!ped!!ped-up! | [A,-B,-D-G]6 | [A,B,DF]6) | %846
!ped! (F2!ped-up!!ped! G2 B,2!ped-up! | E2) z2 z2 ||[K:E]!ped! .B,,2 (D2 B,2!ped-up! | E,2 E2 C2 | %850
 F,2 D2 B,2 |!ped! .F,,2) (^A,2 F,2!ped-up! | B,,2 B,2!ped!!ped-up! F,2 | D2[K:treble] B,2 F2 | %854
 !>!d2) z2 z2 | z6 |[K:bass]!ped! .B,,2 (D2 B,2!ped-up! | E,2 E2 C2 | F,2 D2 B,2 | %859
!ped! .F,,2) (^A,2 F,2!ped-up! | B,,2 B,2!ped!!ped-up! F,2 | D2[K:treble] B,2 F2 | !>!f2) z2 z2 | %863
 z6 |[K:bass]!ped! (.B,,2 D2 B,2!ped-up! |!ped! .E,2 E2 B,2!ped-up! |!ped! .G,,2 ^B,2 G,2!ped-up! | %867
!ped! .C,2 C2 G,2!ped-up! |!ped! .E,,2 G,2 E,2-!ped-up! |!ped! E,2 E,4-!ped-up! | %870
!ped! E,2) z2 z2!ped-up! | z6 |!ped! ([A,,,A,,]6!ped-up! |!ped! [E,,E,]4 [B,,,B,,]2!ped-up! | %874
!ped! [C,,C,]2) z2 z2!ped-up! | [F,,,F,,]6 |!ped!!<(! ([C,,,C,,]4 [A,,,A,,]2!ped-up! | %877
 [E,,E,]4 [F,,F,]2 |!ped! [A,,A,]4 [C,C]2!ped-up!!<)! |!ped! [B,,B,]4 [A,,E,]2)!ped-up! | %880
!ped! [A,,E,]6!ped-up! |!ped! ([B,,,B,,]6!ped-up! |!ped! [C,,C,]6!ped-up! |!ped! [D,,D,]6!ped-up! | %884
!ped! [G,,,G,,]6!ped-up! |!ped! [C,,C,]6!ped-up! |!ped! [F,,,F,,]6!ped-up! | %887
!ped! [B,,,B,,]6)!ped-up! | !arpeggio![B,,G,]2!ped! (CB,CB,!ped-up! | CB,CB,CB, | CB,CB,CB, | %891
!ped! CB,CB,C!ped-up!B, |!ped! CB,) z2 z2!ped-up! | .[B,,,B,,]2 z2 z2 |!ped! (CB,CB,CB,!ped-up! | %895
 CB,CB,CB, |!ped! C!ped-up!B,) z2 z2 | .[B,,,B,,]2 z2 z2 |!ped! (CB,CB,CB,!ped-up! | %899
!ped! CB,CB,C!ped-up!B, |!ped! CB,) z2 z2!ped-up! | .[B,,,B,,]2 z2 z2 |!ped! (CB,CB,CB,!ped-up! | %903
!ped! CB,CB,C!ped-up!B, |!ped! CB,) z2 z2!ped-up! | .[B,,,B,,]2 z2 z2 |!ped! (CB,CB,CB,!ped-up! | %907
!ped! CB,CB,C!ped-up!B, |!ped! E2) z2 z2!ped-up! | .[B,,,B,,]2 z2 z2 |!ped! (CB,CB,CB,!ped-up! | %911
!ped! CB,CB,CB,!ped-up! | B,2) z2!ped! x2!ped-up! | x6 | x6 | x6 | x6 | x6 | x6 | x6 | x6 | %921
 x4 .[G,D]2 | .[^A,^^C]2 .[D,A,]2 .[C,^C]2 | .[F,C]2 A,2- .[A,,E,A,]2 | %924
!ped! .[E,,E,]2 z2 z2!ped-up! |!ped! z6!ped-up! |!ped! (E,,,2 B,,,2 E,,2!ped-up! | %927
!ped! B,,2 G,2 E,,2)!ped-up! |!ped! (E,,,2 B,,,2 E,,2!ped-up! |!ped! B,,2 G,2 E,,2)!ped-up! | %930
!ped! (E,,,2 B,,,2 E,,2!ped-up! |!ped! B,,2 G,2 E,,2)!ped-up! | %932
!ped! (4:3:4(E,,2 B,,2 A,2 B,,2)!ped-up! |!ped! (4:3:4(E,,2 B,,2 G,2 B,,2)!ped-up! | %934
!ped! (4:3:4(E,,2 B,,2 G,2 B,,2)!ped-up! |!ped! (4:3:4(E,,2 B,,2 G,2 B,,2)!ped-up! | %936
!ped! (4:3:4(E,,2 B,,2 G,2 B,,2)!ped-up! |!ped! (4:3:4(E,,2 B,,2 G,2 B,,2)!ped-up! | %938
!ped! (4:3:4(E,,2 B,,2 G,2 B,,2)!ped-up! |!ped! (4:3:4(E,,2 B,,2 G,2 B,,2)!ped-up! | %940
!ped! .B,,,2 z2 z2!ped-up! | [F,B,F]6 |!ped! [E,,,E,,]2 z2 [B,,G,B,]2!ped-up! | %943
!ff!!>(! [=C,E,=C]3 [B,,B,]!f! [^A,,^A,]2!>)! |!ped! [B,,,B,,]6!ped-up! | %945
 ([F,B,F]2 [G,G]2 [B,,B,]2 |!ped! [E,,,E,,]2) z2!ped-up! ([B,,G,B,]2 | %947
!ff!!>(! [=C,E,=C]3 [B,,B,]!f! [^A,,^A,]2)!>)! |!ff!!>(! ([=C,E,=C]3 [B,,B,]!f! [^A,,^A,]2)!>)! | %949
 [=C,E,=C]2 [B,,B,]2 [^A,,^A,]2 | [^C,E,^C]2 [B,,B,]2 [^A,,^A,]2 | %951
[K:treble] [Cc]2 [B,B]2 [^A,^A]2 | [Cc]2 [B,B]2 [^^F,^^F]2 | [A,A]2 [G,G]2[K:bass] [D,D]2 | %954
 [F,F]2 [E,E]2 [G,,G,]2 | [C,C]2 [B,,B,]2 [^^F,,^^F,]2 | [A,,A,]2 [G,,G,]2 [D,,D,]2 | %957
 [F,,F,]2 [E,,E,]2 [G,,,G,,]2 |!ped! [C,,C,]2 z2 z2!ped-up! |!ped! [B,,,B,,]6!ped-up! | %960
!ped! .[E,,,E,,]2 (6:4:6F,,,!<(!G,,,A,,,B,,,C,,D,,!ped-up! |(9:6:9E,,F,,G,,A,,B,,C,D,E,F, | %962
(9:6:9G,A,B,C[I:staff -1]DEFGA |!8va(!(6:4:6Bcdefg(4:2:4abc'd'!8va)! | %964
!ped![I:staff +1] x6!ped-up!!<)! | !>![E,B,E]6 | !fermata!E,6 |] %967
V:3
 x6 | x6 | x6 | x6 | !>!x6 | x6 | x6 | x6 | x6 |[K:treble] x6 | x6 | x6 | !>!x6 | x6 | x6 | x6 | %16
 x6 | .B,2 .E2 .G2 | B6 | [^Ae]6 | .[Bd]2 .[^EB]2 .[F=A]2 | .[^DA]2 .[G,G]2 .[CG]2 | [CE]6 | %23
 [B,F]6 | x6 | x6 | x6 | x6 | x6 | A4 G2 | G6 | F4 G2 | E6- | E6- | E6- | E6 | x6 | x6 | x6 | x6 | %40
 x6 | x6 | x6 | x6 | x6 | x6 | x6 | x6 | x6 | B,2 E2 G2 | B6 | [A=d]6 | .[G=d]2 .[Bd]2 .[Ac]2 | %53
 .[=DA]2 .[EG]2 .[A,E]2 | x6 | x6 | x6 | x6 | x6 | x6 | x6 | x6 | x6 | x6 | x6 | x6 | x6 | %67
 x4!8va(! x2 | x6!8va)! | x6 | x6 | x4 x!mf! x/x/ | x6 | x6 | x6 | x6 | x6 | x6 | x6 | x6 | x6 | %81
 x6 | x6 | x4!8va(! x2 | x6!8va)! | x6 | x6 | x4 x!mp! x | (3xxx A6- | A6 | ^A6- | A6 | ^A6- | A6 | %94
 ^A6 | F6 | x6 | x6 | x6 | x6 | x6 | x6 | x6 | x6 | x6 | x6 | x6 | x6 | F,6- | F,6- | F,6- | F,6- | %112
 .F,2 x2 x2 | x6 | x6 | x6 | x6 | x6 |[K:bass] x6 | x6 | D,2 x2 x2 |[K:treble]!8va(! x6 | %122
 x6!8va)! | x6 | x6 | x6 | x6 | x6 | x6 | x6 | x6 | x6 | x6 | x6 | x6 | x6 | x6 | x6 | %138
[K:bass] [G,B,]4 [F,^A,]2 | [G,B,]6 |[K:treble] x6 | x6 | x6 | x6 | x6 |[K:bass] x6 | x6 | %147
 [E,G,]6 | x6 | x6 |[K:treble] x6 | x6 ||[K:Ab][K:bass] x6 | x6 | x6 | x6 | x6 | x6 | x6 | x6 | %160
 x6 |[K:treble] x6 | x6 | x6 | x6 | x6 | x6 | x6 | x6 | .E2 .A2 .c2 | e6 | [=da]6 | %172
 .[eg]2 .[=Ae]2 .[Bd]2 | .[=Gd]2 .[_Ac]2 .[=Fc]2 | [B,A]6 | [EG]6 | x6 | x6 | x6 | x6 | x6 | x6 | %182
 x6 | x6 | G6- | G6- | G6- | G6 | x6 | x6 | x6 | x6 | x6 | x6 | x6 | x6 | x6 ||[K:E] x6 | x6 | x6 | %200
 x6 | .C2 .F2 .^A2 | c6 | [^Bf]6 | .[c^e]2 .[^^Fc]2 .[GB]2 | .[^EB]2 .[^A,^A]2 .[DA]2 | [DF]6 | %207
 [CG]6 | [^B,=A]2 x2 z2 |[K:bass] x6 | x6 | x6 | x6 |[K:treble] x6 | x6 | x6 | x6 | x6 | %218
 B,2 x2 x2 | x6 | x6 | x6 | x6 |!8va(! x6 | x6 | x6!8va)! | x6 | x6 | x6 | x6 | x6 | x6 | x6 | x6 | %234
 C2 x2 x2 | x6 | x6 | x6 |!8va(! x6 | x6 ||[K:Eb] x6 | x6!8va)! | x6 | x6 | x6 | x6 | x6 | x6 || %248
[K:E]xABxAB |xGBxG^A |xF^AxFG |xEGxEF |xEFxDF | x6 | x6 | x6 |xABxAB |xGBxG^A |xF^AxFG |xEGxEF | %260
xEFxDF | x6 | x6 | x6 |xABxAB |xGBxG^A |xF^AxFG |xEGxEF |xDFxDE |xCExCD |xB,DxB,C |xA,CxA,B, | %272
[K:bass] (A,2 G,2 F,2 | G,2 F,2 E,2 | F,2 E,2 D,2 | E,2 D,2 C,2) | x6 | x6 | x6 | x6 | x6 | %281
[K:treble] x6 | x6 | x6 | x6 | x6 | x6 | x6 | x6 | .B,2 .E2 .G2 | B6 | [^Ae]6 | %292
 .[Bd]2 .[^EB]2 .[F=A]2 | .[^DA]2 .[G,G]2 .[CG]2 | [CE]6 | [B,F]6 | x6 | x6 | x6 | x6 | x6 | %301
 A4 G2 | G6 | F4 G2 | E6- | E6- | E6 |{/D} x2 x4 | x6 | x6 | x6 | x6 | x6 | x6 | x6 | x6 | %316
[K:bass] x6 | x6 | x6 | x6 | x4[K:treble] x2 | B,2 E2 G2 | B6 | [A=d]6 | .[G=d]2 .[Bd]2 .[Ac]2 | %325
 .[=DA]2 .[EG]2 .[A,E]2 | x6 | x6 | x6 | x6 | x6 | x6 | x6 | x6 | x6 | x6 | x6 | x6 | x6 | %339
 x4!8va(! x2 | x6!8va)! | x6 | x6 | x6 | .[CE]2 x2 x2 | x6 | x6 | x4!8va(! x2 | x6!8va)! | x6 | %350
 x6 | x6 |[K:bass] x6 | z2 z2 x2 | x6 | x6 |[K:treble] [A,B,]6 | x6 | [B,C]6 | x6 | x6 | z2 z2 x2 | %362
 x6 | x6 | [E=G]4 z2 | x6 | [F=A]4 z2 | x6 | x6 | x6 | x6 | x6 | x6 | x6 | x6 | x6 | x6 | x6 | x6 | %379
 x6 | [FAf]6 | x6 | x6 | x6 | x6 | x6 | x6 | x6 | x6 | x6 | x6 | x6 | x6 | x6 | x6 | x6 | x6 | x6 | %398
 x4 (3xxx | x4 x2 | x6 | x6 | x6 | x6 | x6 | x6 | x6 | x6 | x6 | x6 | x6 | x6 | x6 | x6 | x6 | x6 | %416
 x6 | x6 | x6 | x6 | x6 | x6 | x6 | x6 | x6 | x6 | x6 | x4 (3:2:4x (3xxx | x4 x2 | x6 | x6 | x6 | %432
 D4 E2 | C2 z2 D2 | E6 | E4 G2 | A6- | A6- | A6 | A4 A2 | G6 | E4 D2 | =D6 | =D4 C2 | B,6 | z6 | %446
 B,6 | B,4 [B,=E]2 | x{/B,} B,2 A,2 C2 | F4 G2 | A6 | A4 c2 | =d6- | d6 | A6 | F4 A2 | (A2 G2) z2 | %457
 z2 z2 G2 | (G2 ^^F2) z2 | z2 z2 C2 | (C2 ^B,4) | x6 | x6 | x6 | x6 | x6 | x6 | x4 (3:2:4x (3xxx | %468
 x4 x2 | x6 | x6 | x6 | x6 | x6 | x6 | F6 |{/C} !arpeggio!F4 ^E2 |{/^E} D4 C2- | x4 x x/x/ | %479
 x<x x4 | x6 | x6 | x6 | F6 | ^A6 | ^A6 | ^A6 | x6 ||[K:F] (3x/x/x/ x x4 | x6 | x6 | F6 | %492
{/C} !arpeggio!F4 E2 |{/E} D4 C2- | x4 x x/x/ | x<x x4 | (3x/x/x/ x x4 | x6 ||[K:E] x6 | x6 | x6 | %501
 x6 | x6 | x6 | x6 | x6 | x6 | x6 | x6 | x6 | x6 | x6 | x6 | x6 | x6 | G6 | A6- | A6- | A6 | %519
 A4 A2 | G6 | E4 D2 | =D6 | C6 | B,2 z2 z2 | z6 | B,6 | B,4 [B,=E]2 | x{/B,} B,2 A,2 C2 | F4 G2 | %530
 A6 | A4 c2 | =d6- | d6 | A6- | A6 | (A6 | =G4 F2 | F6) | E4 =D2 | =G6- | G6 | =F6 |{E=F=G} F4 E2 | %544
 E6- | E6- | E6- | E6- | E6 | =F6- | F6 |{E=F=G} F4 E2 | E2 ^D4- | D6 | D6- | D6 | x6 | x6 | E6- | %559
 E4 D2 | x6 | x6 | x6 | x6 | x6 | x6 | x6 | x6 | x6 | x6 | x6 | ^A4 B2 | B6- | B6 | B6 | %575
 x4 x (3x/ x/x/ | (3x/x/x/ x x4 | x6 | x6 | x6 | x6 | x6 | x6 | x2!8va(! x4 | x6 | x6!8va)! | x6 | %587
 x6 | x6 | x6 | x6 | x6 | x6 | x6 | x6 | x6 | x6 | x6 | x6 | x6 | E6- | E6- | E6- | E6 | %604
 B,CB,CB,C |[K:bass] x6 | x6 | x6 | x6 |[K:treble] x6 | x6 | x6 | x6 | x6 | x6 | x6 | x6 | %617
 .B,2 .E2 .G2 | B6 | [^Ae]6 | .[Bd]2 .[^EB]2 .[F=A]2 | .[^DA]2 .[G,G]2 .[CG]2 | [CE]6 | [B,F]6 | %624
 x6 | x6 | x6 | x6 | x6 | A4 G2 | G6 | F4 G2 | E6- | E6- | E6 | x6 | %636
[I:staff +1] D,2- D,[K:bass][I:staff -1]E,D,E, | x6 | x6 | x6 | x6 |[K:treble] x6 | x6 | x6 | x6 | %645
 x6 | x6 | x6 | x6 | .B,2 .E2 .G2 | B6 | [A=d]6 | .[G=d]2 .[Bd]2 .[Ac]2 | .[=DA]2 .[EG]2 .[A,E]2 | %654
 x6 | x6 | x6 | x6 | x6 | x6 | x6 | x6 | x6 | x6 | x6 | x6 | x6 | x4!8va(! x2 | x6!8va)! | x6 | %670
 x6 | x4 x!mf! x/x/ | x6 | x6 | x6 | x6 | x6 | x6 | x6 | x6 | x6 | x6 | x6 | x4!8va(! x2 | %684
 x6!8va)! | x6 | x6 | x4 x!mp! x | (3xxx A6- | A6 | ^A6- | A6 | ^A6- | A6 | ^A6 | F6 | x6 | x6 | %698
 x6 | x6 | x6 | x6 | x6 | x6 | x6 | x6 | x6 | x6 | F,6- | F,6- | F,6- | F,6- | .F,2 x2 x2 | x6 | %714
 x6 | x6 | x6 | x6 |[K:bass] x6 | x6 | D,2 x2 x2 |[K:treble]!8va(! x6 | x6!8va)! | x6 | x6 | x6 | %726
 x6 | x6 | x6 | x6 | x6 | x6 | x6 | x6 | x6 | x6 | x6 | x6 |[K:bass] [G,B,]4 [F,^A,]2 | [G,B,]6 | %740
[K:treble] x6 | x6 | x6 | x6 | x6 |[K:bass] x6 | x6 | [E,G,]6 | x6 | x6 |[K:treble] x6 | %751
[K:bass] x6 ||[K:Ab] B,6- | B,6 | _C6- | C6 | G,6 | A,6 | ^F,6 | A,2 G,2 B,2 | x6 |[K:treble] x6 | %762
 x6 | x6 | x6 | x6 | x6 | x6 | x6 | .E2 .A2 .c2 | e6 | [=da]6 | .[eg]2 .[=Ae]2 .[Bd]2 | %773
 .[=Gd]2 .[_Ac]2 .[=Fc]2 | [B,A]6 | [EG]6 | x6 | x6 | x6 | x6 | x6 | x6 | x6 | x6 | G6- | G6 | %786
 A6- | A6 | =E6 | F6 | ^D6 | F2 =E2 G2 | x6 | x6 | x6 | x6 | x6 ||[K:E] x6 | x6 | x6 | x6 | %801
 .C2 .F2 .^A2 | c6 | [^Bf]6 | .[c^e]2 .[^^Fc]2 .[GB]2 | .[^EB]2 .[^A,^A]2 .[DA]2 | [DF]6 | [CG]6 | %808
 [^B,=A]2 x2 z2 |[K:bass] x6 | x6 | x6 | x6 |[K:treble] x6 | x6 | x6 | x6 | x6 | B,2 x2 x2 | x6 | %820
 x6 | x6 | x6 |!8va(! x6 | x6 | x6!8va)! | x6 | x6 | x6 | x6 | x6 | x6 | x6 | x6 | C2 x2 x2 | x6 | %836
 x6 | x6 |!8va(! x6 | x6 ||[K:Eb] x6 | x6!8va)! | x6 | x6 | x6 | x6 | x6 | x6 ||[K:E]xABxAB | %849
xGBxG^A |xF^AxFG |xEGxEF |xEFxDF | x6 | x6 | x6 |xABxAB |xGBxG^A |xF^AxFG |xEGxEF |xEFxDF | x6 | %862
 x6 | x6 |xABxAB |xGBxGB |xFGxFG |xEGxEG |x=DExDE |xCExB,E | x6 | x6 |x^EGF=EC |xCExB,E | x6 | x6 | %876
xGBAFE |xGBAFE |x^EGF=EA, |xDFECF, |xCEF,CE |x^DEG,DE |xCEA,CE |xCFA,CF |x^B,FG,B,F |xB,^EG,B,E | %886
x^A,=EF,A,E |xB,D=A,FA | x6 | x6 | x6 | [A,D]6 | x6 | x6 | x6 | [Ad]6 | x6 | x6 | x6 | x6 | x6 | %901
 x6 | G6 | [Adf]6 | G2 x4 | x6 | G6 | [Adf]6 | G2 x4 | x6 | G6 | [Adf]6 | [Geg]2 z2 .G2 | %913
 .B2 .e2 .g2 | b6 |!8va(! [^ae']6 | .[bd']2 .[^eb]2 .[f=a]2 | .[^da]2 .[Gg]2 .[cg]2!8va)! | %918
 .[e=g]2 .[Bf]2 .[ce]2 | .[^Ae]2 .[Bd]2 .[^EB]2 | .[F=A]2 .[^DA]2 .[G,G]2 | .[CG]2 .[D^^F]2 x2 | %922
 x6 | x6 | x6 | x6 | x6 | x6 | x6 | x6 | x6 | x6 | x6 | x6 | x6 | x6 | x6 | x6 | %938
 x4!8va(! x2!8va)! | x6 | x6 | x6 | x6 | x6 | x6 | x6 | x6 | x6 | x6 | x6 | x6 |!8va(! x6 | x6 | %953
 x4!8va)! x2 | x6 | x6 | x6 | x6 | x6 | x6 | x6 | x6 | x6 |!8va(! x6 | e'2!8va)! z2 z2 | x6 | x6 |] %967
V:4
 x6 | x6 | x6 | x6 | x6 | x6 | x6 | x6 | x6 | x6 | x6 | x6 | x6 | x6 | x6 | x6 | x6 | x6 | x6 | %19
 x6 | x6 | x6 | x6 | x6 | x6 | x6 | x6 | x6 | x6 | A,4 G,2 | G,6 | F,4 G,2 | E,,6- | E,,6- | %34
 E,,6- | E,,6 | x6 | x6 | x6 | x6 | .B,,,2 z2 z2 | x6 | x6 | x6 | x6 | x6 | x6 | x6 | x6 | x6 | %50
 x6 | x6 | x6 | x6 | x6 | x6 | x6 | x6 | x6 | x6 | x6 | x6 | x6 | x6 | x6 | x6 |[K:treble] x6 | %67
 x6 | [CE]6 | x6 |[K:bass] x6 | x4 x x/x/ | x6 | x6 | x6 | x6 | x6 | x6 | x6 | x6 | x6 | x6 | %82
[K:treble] x6 | x6 | [CE]6 | x6 |[K:bass] x6 | x6 | x2 F,,4 C,2 | F,6- | F,6- | F,6 | F,6 | x6 | %94
 x6 | E,6 | x6 | x6 | [E,F,]6- | [E,F,]6 | [D,F,]2 z2 z2 | x6 | [C,F,^A,]6 | x6 | .[B,,F,]2 x2 x2 | %105
 x6 | [G,,^E,]6 | x6 | F,,6- | F,,6- | F,,6- | F,,6 | B,,2 x2 x2 | x6 | E,,6- | E,,6 | %116
 !arpeggio![D,,B,,]6 | x6 | [C,,^A,,-]6 | A,,6 | x6 |[K:treble] x6 | x6 | x6 | x6 |[K:bass] x6 | %126
 x6 | x6 | x6 | x6 | x6 | x6 | x6 | x6 | x6 | x6 | x6 | x6 | (G,,4 D,,2 | G,,6) | x6 | x6 | x6 | %143
 x6 | x6 | E,,6 | G,,6 | E,,6 | x6 | x6 | x6 | x6 ||[K:Ab] G,,,6- | G,,,6- | G,,,6- | G,,,6 | x6 | %157
 x6 | x6 | x6 | x6 | x6 | x6 | x6 | x6 | x6 | G,4 F,2 | C,4 B,,2 | x6 | x6 | x6 | x6 | x6 | x6 | %174
 x6 | x6 | x6 | x6 | x6 | x6 | x6 | x6 | x6 | x6 | =E,,6- | E,,6- | E,,6- | E,,6 | x6 | x6 | x6 | %191
 x6 | x6 | x6 | x6 | x6 | x6 ||[K:E] x6 | x6 | x6 | x6 | x6 | x6 | x6 | x6 | x6 | x6 | x6 | x6 | %209
 x6 | x6 | x6 | x6 | x6 | x6 | x6 | x6 | x6 | x6 | x6 | [G,C]4 x2 | x6 | [F,A,]4 x2 | x6 | x6 | %225
 x6 | x6 | x4 x3/2 x/ |{/G,,} x2 x4 | x6 | [C,G,]2 x4 | x6 | x6 | x6 | x6 | x6 | [^A,D]4 x2 | x6 | %238
 [G,B,]4 x2 | x6 ||[K:Eb] x6 | x6 | x6 | x4 x3/2 x/ |{/B,,} x2 x4 | x6 | [E,B,]2 x4 | x6 || %248
[K:E] x6 | E,6 | F,6 | x6 | B,,6 | x2[K:treble] x4 | x6 | x6 |[K:bass] x6 | E,6 | F,6 | x6 | B,,6 | %261
 x2[K:treble] x4 | x6 | x6 |[K:bass] x6 | E,6 | F,6 | x6 | B,,6- | B,,6- | B,,6- | B,,6 | x6 | x6 | %274
 x6 | x6 | D,,6 | E,,6 | C,,6 | D,,6 | x6 | x6 | x6 | x6 | !>!C,6 | ^B,,4 C,2 | D,4 C,2 | %287
 G,,4 F,,2 | x6 | x6 | x6 | x6 | x6 | x6 | x6 | x6 | x6 | x6 | x6 | x6 | x6 | A,4 G,2 | G,6 | %303
 F,4 G,2 | E,,6- | E,,6- | E,,6- | E,,6 | (!>!D,,6 | E,,6 | C,,6 | D,,2 C,,3 .B,,, | %312
 .B,,,2) z2 z2 | x6 | x6 | x6 | x6 | x6 | x6 | x6 | x6 | x6 | x6 | x6 | x6 | x6 | x6 | x6 | x6 | %329
 x6 | x6 | x6 | x6 | x6 | x6 | x6 | x6 | x6 |[K:treble] x6 | x6 | [CE]6 | x6 |[K:bass] x6 | x6 | %344
 x6 | x6 |[K:treble] x6 | x6 | [CE]6 | x6 |[K:bass] x6 | x6 | x6 | x6 | x6 | x6 | F,,6 | x6 | %358
 F,,6 | x6 | x6 | x6 | x6 | x6 | C,4 z2 | x6 | D,4 z2 | x6 | x6 | x6 | x6 | x6 | x6 | x6 | %374
[K:treble] x6 | x4[K:bass] x2 | x6 | x6 | x6 | x6 | x6 | x6 | x6 | x6 | x6 | x6 | x6 | x6 | x6 | %389
 x6 | x6 | x6 | x6 | x6 | x6 | x6 | x6 | x6 | x6 | x6 | x6 | x6 | x6 | x6 | x6 | x6 | x6 | x6 | %408
 x6 | x6 | x6 | x6 | x6 | x6 | x6 | x6 | x6 | x6 | A,,2 ^^F,2 x2 | x6 | G,,2 D,2 x2 | x6 | x6 | %423
 x6 | x6 | x6 | x6 | x6 | x6 | x6 | x6 | x6 | x6 | x6 | x6 | x6 | x6 | x6 | x6 | x6 | x6 | x6 | %442
 x6 | x6 | x6 | x6 | x6 | x6 | x7 | x6 | x6 | x6 | x6 | x6 | x6 | x6 | x6 | x6 | A,,4 x2 | x6 | %460
 G,,2 D,2 x2 | x6 | x6 | x6 | x6 | x6 | x6 | x6 | x6 | x6 | x6 | x6 | x6 | x6 | x2 C,4- | C,4 x2 | %476
 x6 | x6 | x6 | x6 | x6 | x6 | x2 C,4- | C,4 x2 | x6 | x6 | x6 | x6 ||[K:F] x6 | x6 | x2 C,4- | %491
 C,4 x2 | x6 | x6 | x6 | x6 | x6 | x6 ||[K:E] x6 | x6 | x6 | x6 | x6 | x6 | x6 | x6 | x6 | x6 | %508
 x6 | x6 | x6 | x6 | x6 | x6 | x6 | x6 | x6 | x6 | x6 | x6 | x6 | x6 | x6 | x6 | x6 | x6 | x6 | %527
 x6 | x7 | x6 | x6 | x6 | x6 | x6 | x6 | x6 | x6 | x6 | x6 | x6 | x6 | x6 | x6 | x6 | x6 | x6 | %546
 x6 | x6 | x6 | x6 | x6 | x6 | x6 | x6 | x6 | x6 | x6 | x6 | x6 | x6 | x6 | x6 | x6 | x6 | x6 | %565
 x6 | x6 | x6 | x6 | x6 | x6 | x6 | x6 | x6 | x6 | x6 | x6 | x6 | x6 | x6 | x6 | x6 | x6 | x6 | %584
 x6 | x6 | x6 | x6 | x6 | x6 | x6 | B,,2 B,,4 | x6 | x6 | x6 | x6 | x6 | x6 | x6 | x6 | E,,6- | %601
 E,,6- | E,,6- | E,,6 | !>!D,,6 | x6 | x6 | x6 | x6 | x6 | x6 | x6 | x6 | x6 | x6 | x6 | x6 | x6 | %618
 x6 | x6 | x6 | x6 | x6 | x6 | x6 | x6 | x6 | x6 | x6 | A,4 G,2 | G,6 | F,4 G,2 | E,,6- | E,,6 | %634
 E,,6- | E,,6 | x6 | x6 | x6 | x6 | x6 |[K:treble] x6 | x6 | x6 |[K:bass] x6 | x6 | x6 | x6 | x6 | %649
 x6 | x6 | x6 | x6 | x6 | x6 | x6 | x6 | x6 | x6 | x6 | x6 | x6 | x6 | x6 | x6 | x6 | %666
[K:treble] x6 | x6 | [CE]6 | x6 |[K:bass] x6 | x4 x x/x/ | x6 | x6 | x6 | x6 | x6 | x6 | x6 | x6 | %680
 x6 | x6 |[K:treble] x6 | x6 | [CE]6 | x6 |[K:bass] x6 | x6 | x2 F,,4 C,2 | F,6- | F,6- | F,6 | %692
 F,6 | x6 | x6 | E,6 | x6 | x6 | [E,F,]6- | [E,F,]6 | [D,F,]2 z2 z2 | x6 | [C,F,^A,]6 | x6 | %704
 .[B,,F,]2 x2 x2 | x6 | [G,,^E,]6 | x6 | F,,6- | F,,6- | F,,6- | F,,6 | B,,2 x2 x2 | x6 | E,,6- | %715
 E,,6 | !arpeggio![D,,B,,]6 | x6 | [C,,^A,,-]6 | A,,6 | x6 |[K:treble] x6 | x6 | x6 | x6 | %725
[K:bass] x6 | x6 | x6 | x6 | x6 | x6 | x6 | x6 | x6 | x6 | x6 | x6 | x6 | (G,,4 D,,2 | G,,6) | x6 | %741
 x6 | x6 | x6 | x6 | E,,6 | G,,6 | E,,6 | x6 | x6 | x6 | x6 ||[K:Ab] G,,,6- | G,,,6 | A,,,6- | %755
 A,,,6 | E,,6- | E,,6- | E,,6- | E,,6 | x6 | x6 | x6 | x6 | F,6 | =E,2 F,2 ^F,2 | G,2 F,2 C,2 | %767
 B,,2 G,,2 F,,2 | x6 | x6 | x6 | x6 | x6 | x6 | x6 | x6 | x6 | x6 | x6 | x6 | x6 | x6 | x6 | x6 | %784
 =E,,6- | E,,6 | F,,6- | F,,6 | x6 | x6 | x6 | x6 | x4 x3/2 x/ | x6 | x6 | x6 | x6 ||[K:E] x6 | %798
 x6 | x6 | x6 | x6 | x6 | x6 | x6 | x6 | x6 | x6 | x6 | x6 | x6 | x6 | x6 | x6 | x6 | x6 | x6 | %817
 x6 | x6 | x6 | [G,C]4 x2 | x6 | [F,A,]4 x2 | x6 | x6 | x6 | x6 | x4 x3/2 x/ |{/G,,} x2 x4 | x6 | %830
 [C,G,]2 x4 | x6 | x6 | x6 | x6 | x6 | [^A,D]4 x2 | x6 | [G,B,]4 x2 | x6 ||[K:Eb] x6 | x6 | x6 | %843
 x4 x3/2 x/ |{/B,,} x2 x4 | x6 | [E,B,]2 x4 | x6 ||[K:E] x6 | E,6 | F,6 | x6 | B,,6 | %853
 x2[K:treble] x4 | x6 | x6 |[K:bass] x6 | E,6 | F,6 | x6 | B,,6 | x2[K:treble] x4 | x6 | x6 | %864
[K:bass] x6 | x6 | x6 | x6 | x6 | A,,4 B,,2 | C,2 x2 x2 | x6 | x6 | x6 | x6 | x6 | x6 | x6 | x6 | %879
 x6 | x6 | x6 | x6 | x6 | x6 | x6 | x6 | x6 | x6 | x6 | x6 | x6 | x6 | x6 | x6 | x6 | E,2 x2 x2 | %897
 x6 | x6 | x6 | x6 | x6 | x6 | x6 | E,2 x2 x2 | x6 | x6 | x6 | x6 | z6 | x6 | x6 | x6 | x6 | x6 | %915
 x6 | x6 | x6 | x6 | x6 | x6 | x6 | x6 | x6 | x6 | x6 | x6 | x6 | x6 | x6 | x6 | x6 | x6 | x6 | %934
 x6 | x6 | x6 | x6 | x6 | x6 | x6 | x6 | x6 | x6 | x6 | x6 | x6 | x6 | x6 | x6 | x6 | %951
[K:treble] x6 | x6 | x4[K:bass] x2 | x6 | x6 | x6 | x6 | x6 | x6 | x6 | x6 | x6 |!8va(! x6!8va)! | %964
 x6 | x6 | !fermata![E,,,E,,]6 |] %967
V:5
 x6 | x6 | x6 | x6 | x6 | x6 | x6 | x6 | x6 |[K:treble] x6 | x6 | x6 | x6 | x6 | x6 | x6 | x6 | %17
 x6 | x6 | x6 | x6 | x6 | x6 | x6 | x6 | x6 | x6 | x6 | x6 | x6 | x6 | x6 | x6 | x6 | x6 | x6 | %36
 x6 | x6 | x6 | x6 | x6 | x6 | x6 | x6 | x6 | x6 | x6 | x6 | x6 | x6 | x6 | x6 | x6 | x6 | x6 | %55
 x6 | x6 | x6 | x6 | x6 | x6 | x6 | x6 | x6 | x6 | x6 | x6 | x4!8va(! x2 | x6!8va)! | x6 | x6 | %71
 x6 | x6 | x6 | x6 | x6 | x6 | x6 | x6 | x6 | x6 | x6 | x6 | x4!8va(! x2 | x6!8va)! | x6 | x6 | %87
 x6 | x8 | x4 x x | !arpeggio!x6 | x6 | x6 | x6 | x6 | x6 | x6 | x6 | x6 | x6 | x6 | x6 | x6 | x6 | %104
 x6 | x6 | x6 | x6 | x6 | x6 | x6 | x4 x<x | x6 | x6 | x6 | x6 | x6 | x6 |[K:bass] x6 | x6 | x6 | %121
[K:treble]!8va(! x6 | x6!8va)! | x6 | x6 | x6 | x6 | x6 | x6 | x6 | x6 | x6 | x6 | x6 | x6 | x6 | %136
 x6 | x6 |[K:bass] x6 | x6 |[K:treble] x6 | x6 | x6 | x6 | x6 |[K:bass] x6 | x6 | x6 | x6 | x6 | %150
[K:treble] x6 | x6 ||[K:Ab][K:bass] x6 | x6 | x6 | x6 | x6 | x6 | x6 | x6 | x6 |[K:treble] x6 | %162
 x6 | x6 | x6 | x6 | x6 | x6 | x6 | x6 | x6 | x6 | x6 | x6 | x6 | x6 | x6 | x6 | x6 | x6 | x6 | %181
 x6 | x6 | x6 | x6 | x6 | x6 | x6 | x6 | x6 | x6 | x6 | x6 | x6 | x6 | x6 | x6 ||[K:E] x6 | x6 | %199
 x6 | x6 | x6 | x6 | x6 | x6 | x6 | x6 | x6 | x6 |[K:bass] x6 | x6 | x6 | x6 |[K:treble] x6 | x6 | %215
 x6 | x6 | x6 | E6 | x6 | x6 | x6 | x6 |!8va(! x6 | x6 | x6!8va)! | x6 | x6 | x6 | x6 | x6 | x6 | %232
 x6 | x6 | F6 | x6 | x6 | x6 |!8va(! x6 | x6 ||[K:Eb] x6 | x6!8va)! | x6 | x6 | x6 | x6 | x6 | %247
 x6 ||[K:E] x6 | x6 | x6 | x6 | x6 | x6 | x6 | x6 | b x x4 | x6 | f x x4 | x6 | x6 | x6 | x6 | x6 | %264
 b x x4 | x6 | f x x4 | x6 | x6 | x6 | x6 | x6 |[K:bass] x6 | x6 | x6 | x6 | x6 | x6 | x6 | x6 | %280
 x6 |[K:treble] x6 | x6 | x6 | x6 | x6 | x6 | x6 | x6 | x6 | x6 | x6 | x6 | x6 | x6 | x6 | x6 | %297
 x6 | x6 | x6 | x6 | x6 | x6 | x6 | x6 | x6 | x4 x x | x6 | x6 | x6 | x6 | x6 | x6 | x6 | x6 | x6 | %316
[K:bass] x6 | x6 | x6 | x6 | x4[K:treble] x2 | x6 | x6 | x6 | x6 | x6 | x6 | x6 | x6 | x6 | x6 | %331
 x6 | x6 | x6 | x6 | x6 | x6 | x6 | x6 | x4!8va(! x2 | x6!8va)! | x6 | x6 | x6 | x6 | x6 | x6 | %347
 x4!8va(! x2 | x6!8va)! | x6 | x6 | x6 |[K:bass] x6 | x6 | x6 | x6 |[K:treble] x6 | x6 | x6 | x6 | %360
 x6 | x6 | x6 | x6 | x6 | x6 | x6 | x6 | [df]4 x2 | x6 | [eg]4 x2 | x6 | [^ac']4 x2 | x6 | x6 | %375
 x6 | x6 | x6 | x6 | x6 | x6 | x6 | x6 | x6 | x6 | x6 | x6 | x6 | x6 | x6 | x6 | x6 | x6 | x6 | %394
 x6 | x6 | x6 | x6 | x6 | x6 | x6 | x6 | x6 | x6 | x6 | x6 | x6 | x6 | x6 | x6 | x6 | x6 | x6 | %413
 x6 | x6 | x6 | x6 | x6 | x6 | x6 | x6 | x6 | x6 | x6 | x6 | x6 | x6 | x6 | x6 | x6 | x6 | x6 | %432
 x6 | x6 | x6 | x6 | x6 | x6 | x4 (3xxx | x4 x2 | x6 | x6 | x6 | x6 | x6 | x6 | x6 | x6 | %448
 (3x/x/x/ x6 | x6 | x6 | x6 | x6 | x6 | x6 | x6 | x6 | x6 | x6 | x6 | x6 | x6 | x6 | x6 | x6 | x6 | %466
 x6 | x6 | x6 | x6 | x6 | x6 | x6 | x6 | x6 | x4 x3/2 x/ | x<x x2 x2 | x6 | x6 | x6 | x6 | x6 | %482
 x6 | x6 | x6 | x6 | x6 | x6 ||[K:F] x6 | x6 | x6 | x4 x3/2 x/ | x<x x2 x2 | x6 | x6 | x6 | x6 | %497
 x6 ||[K:E] x6 | x6 | x6 | x6 | x6 | x6 | x6 | x6 | x6 | x6 | x6 | x6 | x6 | x6 | x6 | x6 | x6 | %515
 x6 | x6 | x6 | x4!>(! (3xxx | x4 x2 | x6 | x4!>)! x2 | x6 | x6 | x6 | x6 | x6 | x6 | (3x/x/x/ x6 | %529
 x6 | x6 | x6 | x6 | x6 | x6 | x6 | x6 | x6 | x6 | x6 | x6 | x6 | x4 (3xxx | x4 x2 | x6 | x6 | x6 | %547
 x6 | x6 | x6 | x4 (3xxx | x4 x2 | x6 | x6 | x6 | x6 | x6 | x6 | x6 | x6 | x6 | x6 | x6 | x6 | x6 | %565
 x6 | x6 | x6 | x6 | x6 | x6 | x6 | x6 | x6 | x6 | x6 | x6 | x6 | x6 | x6 | x6 | x6 | x6 | %583
 x2!8va(! x4 | x6 | x6!8va)! | x6 | x6 | x6 | x6 | x6 | x6 | x6 | x6 | x6 | x6 | x6 | x6 | x6 | %599
 x6 | x6 | x6 | x6 | x6 | x6 |[K:bass] x6 | x6 | x6 | x6 |[K:treble] x6 | x6 | x6 | x6 | x6 | x6 | %615
 x6 | x6 | x6 | x6 | x6 | x6 | x6 | x6 | x6 | x6 | x6 | x6 | x6 | x6 | x6 | x6 | x6 | x6 | x6 | %634
 x4 x x | !arpeggio!x2 x4 | x3[K:bass] x3 | x6 | x6 | x6 | x6 |[K:treble] x6 | x6 | x6 | x6 | x6 | %646
 x6 | x6 | x6 | x6 | x6 | x6 | x6 | x6 | x6 | x6 | x6 | x6 | x6 | x6 | x6 | x6 | x6 | x6 | x6 | %665
 x6 | x6 | x4!8va(! x2 | x6!8va)! | x6 | x6 | x6 | x6 | x6 | x6 | x6 | x6 | x6 | x6 | x6 | x6 | %681
 x6 | x6 | x4!8va(! x2 | x6!8va)! | x6 | x6 | x6 | x8 | x4 x x/x/ | x6 | x6 | x6 | x6 | x6 | x6 | %696
 x6 | x6 | x6 | x6 | x6 | x6 | x6 | x6 | x6 | x6 | x6 | x6 | x6 | x6 | x6 | x4 x<x | x6 | x6 | x6 | %715
 x6 | x6 | x6 |[K:bass] x6 | x6 | x6 |[K:treble]!8va(! x6 | x6!8va)! | x6 | x6 | x6 | x6 | x6 | %728
 x6 | x6 | x6 | x6 | x6 | x6 | x6 | x6 | x6 | x6 |[K:bass] x6 | x6 |[K:treble] x6 | x6 | x6 | x6 | %744
 x6 |[K:bass] x6 | x6 | x6 | x6 | x6 |[K:treble] x6 |[K:bass] x6 ||[K:Ab] x6 | x6 | x6 | x6 | x6 | %757
 x6 | x6 | x6 | x6 |[K:treble] x6 | x6 | x6 | x6 | x6 | x6 | x6 | x6 | x6 | x6 | x6 | x6 | x6 | %774
 x6 | x6 | x6 | x6 | x6 | x6 | x6 | x6 | x6 | x6 | x6 | x6 | x6 | x6 | x6 | x6 | x6 | x6 | x6 | %793
 x6 | x6 | x6 | x6 ||[K:E] x6 | x6 | x6 | x6 | x6 | x6 | x6 | x6 | x6 | x6 | x6 | x6 |[K:bass] x6 | %810
 x6 | x6 | x6 |[K:treble] x6 | x6 | x6 | x6 | x6 | E6 | x6 | x6 | x6 | x6 |!8va(! x6 | x6 | %825
 x6!8va)! | x6 | x6 | x6 | x6 | x6 | x6 | x6 | x6 | F6 | x6 | x6 | x6 |!8va(! x6 | x6 ||[K:Eb] x6 | %841
 x6!8va)! | x6 | x6 | x6 | x6 | x6 | x6 ||[K:E] x6 | x6 | x6 | x6 | x6 | x6 | x6 | x6 | b x x4 | %857
 x6 | f x x4 | x6 | x6 | x6 | x6 | x6 | b x x4 | x6 | g x x4 | x6 | e x x4 | x6 | x6 | x6 | x6 | %873
 x6 | x6 | x6 | x6 | x6 | x6 | x6 | x6 | x6 | x6 | x6 | x6 | x6 | x6 | x6 | x6 | x6 | x6 | x6 | %892
 x6 | x6 | x6 | x6 | x6 | x6 | x6 | x6 | x6 | x6 | (!arpeggio!x6 | !arpeggio!x4 ^^f2 | %904
 !arpeggio!x2) x4 | x6 | !arpeggio!x6 | !arpeggio!x4 ^^f2 | !arpeggio!xx x4 | x6 | !arpeggio!x6 | %911
 !arpeggio!x4 ^^f2 | !arpeggio!x2 x4 | x6 | x6 |!8va(! x6 | x6 | x6!8va)! | x6 | x6 | x6 | x6 | %922
 x6 | x6 | x6 | x6 | x6 | x6 | x6 | x6 | x6 | x6 | x6 | x6 | x6 | x6 | x6 | x6 | %938
 x4!8va(! x2!8va)! | x6 | x6 | x6 | x6 | x6 | x6 | x6 | x6 | x6 | x6 | x6 | x6 |!8va(! x6 | x6 | %953
 x4!8va)! x2 | x6 | x6 | x6 | x6 | x6 | x6 | x6 | x6 | x6 |!8va(! x6 | x2!8va)! x4 | x6 | x6 |] %967
V:6
 x6 | x6 | x6 | x6 | x6 | x6 | x6 | x6 | x6 | x6 | x6 | x6 | x6 | x6 | x6 | x6 | x6 | x6 | x6 | %19
 x6 | x6 | x6 | x6 | x6 | x6 | x6 | x6 | x6 | x6 | x6 | x6 | x6 | x6 | x6 | x6 | x6 | x6 | x6 | %38
 x6 | x6 | x6 | x6 | x6 | x6 | x6 | x6 | x6 | x6 | x6 | x6 | x6 | x6 | x6 | x6 | x6 | x6 | x6 | %57
 x6 | x6 | x6 | x6 | x6 | x6 | x6 | x6 | x6 |[K:treble] x6 | x6 | x6 | x6 |[K:bass] x6 | x6 | x6 | %73
 x6 | x6 | x6 | x6 | x6 | x6 | x6 | x6 | x6 |[K:treble] x6 | x6 | x6 | x6 |[K:bass] x6 | x6 | x8 | %89
 x6 | x6 | x6 | !arpeggio!x6- | F,6- | F,6 | x6 | x6 | x6 | x6 | x6 | x6 | x6 | !arpeggio!x6 | %103
 [F,A,]6 | x6 | x6 | !arpeggio!x6 | x6 | x6 | x6 | x6 | x6 | x6 | x6 | x6 | x6 | x6 | x6 | %118
 !arpeggio!x6 | x6 | x6 |[K:treble] x6 | x6 | x6 | x6 |[K:bass] x6 | x6 | x6 | x6 | x6 | x6 | x6 | %132
 x6 | x6 | x6 | x6 | x6 | x6 | x6 | x6 | x6 | x6 | x6 | x6 | x6 | x6 | x6 | x6 | x6 | x6 | x6 | %151
 x6 ||[K:Ab] x6 | x6 | x6 | x6 | x6 | x6 | x6 | x6 | x6 | x6 | x6 | x6 | x6 | x6 | x6 | x6 | x6 | %169
 x6 | x6 | x6 | x6 | x6 | x6 | x6 | x6 | x6 | x6 | x6 | x6 | x6 | x6 | x6 | x6 | x6 | x6 | x6 | %188
 x6 | x6 | x6 | x6 | x6 | x6 | x6 | x6 | x6 ||[K:E] x6 | x6 | x6 | x6 | x6 | x6 | x6 | x6 | x6 | %206
 x6 | x6 | x6 | x6 | x6 | x6 | x6 | x6 | x6 | x6 | x6 | x6 | x6 | x6 | x6 | x6 | x6 | x6 | x6 | %225
 x6 | x6 | x6 | x6 | x6 | !arpeggio!x x x4 | x6 | x6 | x6 | x6 | x6 | x6 | x6 | x6 | x6 || %240
[K:Eb] x6 | x6 | x6 | x6 | x6 | x6 | !arpeggio!x x x4 | x6 ||[K:E] x6 | x6 | x6 | x6 | x6 | %253
 x2[K:treble] x4 | x6 | x6 |[K:bass] x6 | x6 | x6 | x6 | x6 | x2[K:treble] x4 | x6 | x6 | %264
[K:bass] x6 | x6 | x6 | x6 | x6 | x6 | x6 | x6 | x6 | x6 | x6 | x6 | x6 | x6 | x6 | x6 | x6 | x6 | %282
 x6 | x6 | x6 | x6 | x6 | x6 | x6 | x6 | x6 | x6 | x6 | x6 | x6 | x6 | x6 | x6 | x6 | x6 | x6 | %301
 x6 | x6 | x6 | x6 | x6 | x6 | x6 | x6 | x6 | x6 | x6 | x6 | x6 | x6 | x6 | x6 | x6 | x6 | x6 | %320
 x6 | x6 | x6 | x6 | x6 | x6 | x6 | x6 | x6 | x6 | x6 | x6 | x6 | x6 | x6 | x6 | x6 | x6 | %338
[K:treble] x6 | x6 | x6 | x6 |[K:bass] x6 | x6 | x6 | x6 |[K:treble] x6 | x6 | x6 | x6 | %350
[K:bass] x6 | x6 | x6 | x6 | x6 | x6 | x6 | x6 | x6 | x6 | x6 | x6 | x6 | x6 | x6 | x6 | x6 | x6 | %368
 x6 | x6 | x6 | x6 | x6 | x6 |[K:treble] x6 | x4[K:bass] x2 | x6 | x6 | x6 | x6 | x6 | x6 | x6 | %383
 x6 | x6 | x6 | x6 | x6 | x6 | x6 | x6 | x6 | x6 | x6 | x6 | x6 | x6 | x6 | x6 | x6 | x6 | x6 | %402
 x6 | x6 | x6 | x6 | x6 | x6 | x6 | x6 | x6 | x6 | x6 | x6 | x6 | x6 | x6 | x6 | A,,4 x2 | x6 | %420
 G,,4 x2 | x6 | x6 | x6 | x6 | x6 | x6 | x6 | x6 | x6 | x6 | x6 | x6 | x6 | x6 | x6 | x6 | x6 | %438
 x6 | x6 | x6 | x6 | x6 | E,6- | E,4 x2 | x6 | x6 | x6 | x7 | x6 | x6 | x6 | x6 | x6 | x6 | x6 | %456
 x6 | x6 | x4 x2 | x6 | G,,4 x2 | x6 | x6 | x6 | x6 | x6 | x6 | x6 | x6 | x6 | x6 | x6 | x6 | x6 | %474
 x6 | x6 | x6 | x6 | x6 | x6 | x6 | x6 | x6 | x6 | x6 | x6 | x6 | x6 ||[K:F] x6 | x6 | x6 | x6 | %492
 x6 | x6 | x6 | x6 | x6 | x6 ||[K:E] x6 | x6 | x6 | x6 | x6 | x6 | x6 | x6 | x6 | x6 | x6 | x6 | %510
 x6 | x6 | x6 | x6 | x6 | x6 | x6 | x6 | x6 | x6 | x6 | x6 | x6 | x6 | x6 | x6 | x6 | x6 | x7 | %529
 x6 | x6 | x6 | x6 | x6 | x6 | x6 | x6 | x6 | x6 | x6 | x6 | x6 | x6 | x6 | x6 | x6 | x6 | x6 | %548
 x6 | x6 | x6 | x6 | x6 | x6 | x6 | x6 | x6 | x6 | x6 | x6 | x6 | x6 | x6 | x6 | x6 | x6 | x6 | %567
 x6 | x6 | x6 | x6 | x6 | x6 | x6 | x6 | x6 | x6 | x6 | x6 | x6 | x6 | x6 | x6 | x6 | x6 | x6 | %586
 x6 | x6 | x6 | x6 | x6 | x6 | x6 | x6 | x6 | x6 | x6 | x6 | x6 | x6 | x6 | x6 | x6 | x6 | x6 | %605
 x6 | x6 | x6 | x6 | x6 | x6 | x6 | x6 | x6 | x6 | x6 | x6 | x6 | x6 | x6 | x6 | x6 | x6 | x6 | %624
 x6 | x6 | x6 | x6 | x6 | x6 | x6 | x6 | x6 | x6 | x6 | x6 | x6 | x6 | x6 | x6 | x6 | %641
[K:treble] x6 | x6 | x6 |[K:bass] x6 | x6 | x6 | x6 | x6 | x6 | x6 | x6 | x6 | x6 | x6 | x6 | x6 | %657
 x6 | x6 | x6 | x6 | x6 | x6 | x6 | x6 | x6 |[K:treble] x6 | x6 | x6 | x6 |[K:bass] x6 | x6 | x6 | %673
 x6 | x6 | x6 | x6 | x6 | x6 | x6 | x6 | x6 |[K:treble] x6 | x6 | x6 | x6 |[K:bass] x6 | x6 | x8 | %689
 x6 | x6 | x6 | !arpeggio!x6- | F,6- | F,6 | x6 | x6 | x6 | x6 | x6 | x6 | x6 | !arpeggio!x6 | %703
 [F,A,]6 | x6 | x6 | !arpeggio!x6 | x6 | x6 | x6 | x6 | x6 | x6 | x6 | x6 | x6 | x6 | x6 | %718
 !arpeggio!x6 | x6 | x6 |[K:treble] x6 | x6 | x6 | x6 |[K:bass] x6 | x6 | x6 | x6 | x6 | x6 | x6 | %732
 x6 | x6 | x6 | x6 | x6 | x6 | x6 | x6 | x6 | x6 | x6 | x6 | x6 | x6 | x6 | x6 | x6 | x6 | x6 | %751
 x6 ||[K:Ab] x6 | x6 | x6 | x6 | x6 | x6 | x6 | x6 | x6 | x6 | x6 | x6 | x6 | x6 | x6 | x6 | x6 | %769
 x6 | x6 | x6 | x6 | x6 | x6 | x6 | x6 | x6 | x6 | x6 | x6 | x6 | x6 | x6 | x6 | x6 | x6 | x6 | %788
 x6 | x6 | x6 | x6 | x6 | x6 | x6 | x6 | x6 ||[K:E] x6 | x6 | x6 | x6 | x6 | x6 | x6 | x6 | x6 | %806
 x6 | x6 | x6 | x6 | x6 | x6 | x6 | x6 | x6 | x6 | x6 | x6 | x6 | x6 | x6 | x6 | x6 | x6 | x6 | %825
 x6 | x6 | x6 | x6 | x6 | !arpeggio!x x x4 | x6 | x6 | x6 | x6 | x6 | x6 | x6 | x6 | x6 || %840
[K:Eb] x6 | x6 | x6 | x6 | x6 | x6 | !arpeggio!x x x4 | x6 ||[K:E] x6 | x6 | x6 | x6 | x6 | %853
 x2[K:treble] x4 | x6 | x6 |[K:bass] x6 | x6 | x6 | x6 | x6 | x2[K:treble] x4 | x6 | x6 | %864
[K:bass] x6 | x6 | x6 | x6 | x6 | x6 | x6 | x6 | x6 | x6 | x6 | x6 | x6 | x6 | x6 | x6 | x6 | x6 | %882
 x6 | x6 | x6 | x6 | x6 | x6 | x6 | x6 | x6 | x6 | x6 | x6 | x6 | x6 | x6 | x6 | x6 | x6 | x6 | %901
 x6 | x6 | x6 | x6 | x6 | x6 | x6 | x6 | x6 | x6 | x6 | x6 | x6 | x6 | x6 | x6 | x6 | x6 | x6 | %920
 x6 | x6 | x6 | x6 | x6 | x6 | x6 | x6 | x6 | x6 | x6 | x6 | x6 | x6 | x6 | x6 | x6 | x6 | x6 | %939
 x6 | x6 | x6 | x6 | x6 | x6 | x6 | x6 | x6 | x6 | x6 | x6 |[K:treble] x6 | x6 | x4[K:bass] x2 | %954
 x6 | x6 | x6 | x6 | x6 | x6 | x6 | x6 | x6 |!8va(! x6!8va)! | x6 | x6 | x6 |] %967

